;FLAVOR:Marlin
;TIME:22736
;Filament used: 20.838m
;Layer height: 0.2
;MINX:57.858
;MINY:57.901
;MINZ:0.24
;MAXX:177.142
;MAXY:177.099
;MAXZ:44.09
;Generated with Cura_SteamEngine 5.3.0
M140 S50
M105
M190 S50
M104 S200
M105
M109 S200
M82 ;absolute extrusion mode
; Ender 3 Custom Start G-code
G92 E0 ; Reset Extruder
G28 ; Home all axes
G1 Z2.0 F3000 ; Move Z Axis up little to prevent scratching of Heat Bed
G1 X0.1 Y20 Z0.3 F5000.0 ; Move to start position
G1 X0.1 Y200.0 Z0.3 F1500.0 E15 ; Draw the first line
G1 X0.4 Y200.0 Z0.3 F5000.0 ; Move to side a little
G1 X0.4 Y20 Z0.3 F1500.0 E30 ; Draw the second line
G92 E0 ; Reset Extruder
G1 Z2.0 F3000 ; Move Z Axis up little to prevent scratching of Heat Bed
G1 X5 Y20 Z0.3 F5000.0 ; Move over to prevent blob squish
G92 E0
G92 E0
G1 F2700 E-5
;LAYER_COUNT:215
;LAYER:-6
M107
G0 F9000 X75.523 Y76.635 Z0.24
;TYPE:SUPPORT-INTERFACE
G1 F2700 E0
G1 F1125 X78.9 Y73.436 E0.37131
G1 X80.227 Y72.306 E0.51044
G1 X83.92 Y69.5 E0.88068
G1 X85.225 Y68.61 E1.00677
G1 X89.4 Y66.096 E1.39579
G1 X90.851 Y65.334 E1.52661
G1 X95.038 Y63.393 E1.895
G1 X96.627 Y62.765 E2.03139
G1 X101.169 Y61.227 E2.41418
G1 X101.184 Y61.237 E2.41561
G1 X102.679 Y60.827 E2.53936
G1 X107.159 Y59.841 E2.90553
G1 X108.732 Y59.574 E3.03289
G1 X113.715 Y59.029 E3.43303
G1 X113.728 Y59.041 E3.43444
G1 X115.186 Y58.965 E3.55098
G1 X119.816 Y58.966 E3.92057
G1 X121.237 Y59.025 E4.0341
G1 X121.25 Y59.039 E4.03562
G1 X126.142 Y59.56 E4.42833
G1 X127.842 Y59.841 E4.56587
G1 X132.322 Y60.827 E4.93204
G1 X133.786 Y61.214 E5.05292
G1 X133.792 Y61.229 E5.05421
G1 X138.489 Y62.808 E5.44976
G1 X139.961 Y63.396 E5.57629
G1 X144.149 Y65.334 E5.94466
G1 X145.596 Y66.093 E6.07509
G1 X149.642 Y68.526 E6.45195
G1 X150.981 Y69.425 E6.58069
G1 X154.77 Y72.303 E6.96051
G1 X156.095 Y73.431 E7.09941
G1 X159.477 Y76.635 E7.47129
G1 X160.611 Y77.837 E7.6032
G1 X163.686 Y81.462 E7.98265
G1 X164.583 Y82.643 E8.10103
G1 X167.126 Y86.362 E8.46066
G1 X167.121 Y86.381 E8.46223
G1 X167.325 Y86.689 E8.49172
G1 X168.129 Y88.032 E8.61667
G1 X170.355 Y92.241 E8.99674
G1 X170.985 Y93.594 E9.11588
G1 X172.772 Y98.086 E9.50178
G1 X173.284 Y99.613 E9.63034
G1 X174.549 Y104.184 E10.00893
G1 X174.866 Y105.626 E10.12679
G1 X175.617 Y110.161 E10.49372
G1 X175.668 Y110.556 E10.52551
G1 X175.846 Y112.185 E10.65632
G1 X175.834 Y112.197 E10.65768
G1 X176.078 Y116.746 E11.02132
G1 X176.078 Y118.244 E11.14089
G1 X175.85 Y122.777 E11.5032
G1 X175.834 Y122.792 E11.50495
G1 X175.814 Y123.098 E11.52942
G1 X175.655 Y124.563 E11.64705
G1 X174.868 Y129.366 E12.03556
G1 X174.519 Y130.936 E12.16395
G1 X173.254 Y135.485 E12.54085
G1 X172.73 Y137.025 E12.6707
G1 X170.981 Y141.406 E13.04725
G1 X170.303 Y142.867 E13.17582
G1 X168.068 Y147.075 E13.55616
G1 X167.144 Y148.606 E13.6989
G1 X167.126 Y148.609 E13.70036
G1 X164.708 Y152.184 E14.04487
G1 X163.693 Y153.531 E14.1795
G1 X160.611 Y157.163 E14.55974
G1 X159.477 Y158.365 E14.69165
G1 X156.1 Y161.564 E15.06296
G1 X154.773 Y162.694 E15.20209
G1 X151.08 Y165.5 E15.57233
G1 X149.775 Y166.39 E15.69842
G1 X145.6 Y168.904 E16.08744
G1 X144.149 Y169.666 E16.21826
G1 X139.962 Y171.607 E16.58665
G1 X138.373 Y172.235 E16.72304
G1 X133.831 Y173.773 E17.10583
G1 X133.816 Y173.763 E17.10727
G1 X132.321 Y174.173 E17.23101
G1 X127.841 Y175.159 E17.59718
G1 X126.268 Y175.426 E17.72454
G1 X121.285 Y175.971 E18.12468
G1 X121.272 Y175.959 E18.12609
G1 X119.814 Y176.035 E18.24263
G1 X115.184 Y176.035 E18.61222
G1 X113.763 Y175.974 E18.72575
G1 X113.75 Y175.961 E18.72722
G1 X108.858 Y175.44 E19.11993
G1 X107.158 Y175.159 E19.25747
G1 X102.678 Y174.173 E19.62364
G1 X101.214 Y173.786 E19.74452
G1 X101.208 Y173.771 E19.74581
G1 X96.511 Y172.192 E20.14136
G1 X95.039 Y171.604 E20.26789
G1 X90.851 Y169.666 E20.63626
G1 X89.4 Y168.904 E20.76708
G1 X85.355 Y166.472 E21.14384
G1 X84.018 Y165.575 E21.27236
G1 X80.227 Y162.694 E21.65244
G1 X78.9 Y161.564 E21.79157
G1 X75.523 Y158.365 E22.16288
G1 X74.389 Y157.163 E22.29479
G1 X71.307 Y153.53 E22.67509
G1 X70.414 Y152.353 E22.79302
G1 X67.875 Y148.635 E23.15241
G1 X67.879 Y148.619 E23.15373
G1 X67.673 Y148.308 E23.18351
G1 X66.866 Y146.959 E23.30899
G1 X64.697 Y142.867 E23.67868
G1 X64.015 Y141.406 E23.80738
G1 X62.27 Y137.025 E24.18381
G1 X61.746 Y135.485 E24.31366
G1 X60.481 Y130.936 E24.69056
G1 X60.132 Y129.365 E24.81902
G1 X59.382 Y124.839 E25.18524
G1 X59.346 Y124.568 E25.20706
G1 X59.154 Y122.815 E25.34783
G1 X59.166 Y122.803 E25.34918
G1 X58.922 Y118.254 E25.71282
G1 X58.922 Y116.756 E25.8324
G1 X59.149 Y112.223 E26.1947
G1 X59.166 Y112.208 E26.19651
G1 X59.186 Y111.902 E26.22099
G1 X59.345 Y110.437 E26.33862
G1 X60.132 Y105.634 E26.72712
G1 X60.481 Y104.064 E26.85551
G1 X61.746 Y99.515 E27.23241
G1 X62.27 Y97.975 E27.36226
G1 X64.018 Y93.594 E27.73878
G1 X64.645 Y92.24 E27.85789
G1 X66.932 Y87.925 E28.24772
G1 X67.855 Y86.393 E28.39049
G1 X67.874 Y86.391 E28.39201
G1 X70.292 Y82.816 E28.73653
G1 X71.307 Y81.469 E28.87116
G1 X74.389 Y77.837 E29.2514
G1 X75.523 Y76.635 E29.38331
G0 F9000 X76.377 Y76.377
G1 F1125 X158.622 Y158.622 E38.66783
G1 F2700 E33.66783
G0 F9000 X159.753 Y157.49
G1 F2700 E38.66783
G1 F1125 X77.539 Y75.276 E47.94886
G1 F2700 E42.94886
G0 F9000 X78.7 Y74.175
G1 F2700 E47.94886
G1 F1125 X160.821 Y156.296 E57.21939
G1 F2700 E52.21939
G0 F9000 X161.86 Y155.072
G1 F2700 E57.21939
G1 F1125 X79.899 Y73.111 E66.47185
G1 F2700 E61.47185
G0 F9000 X81.154 Y72.103
G1 F2700 E66.47185
G1 F1125 X162.899 Y153.848 E75.69994
G1 F2700 E70.69994
G0 F9000 X163.902 Y152.588
G1 F2700 E75.69994
G1 F1125 X82.44 Y71.127 E84.89601
G1 F2700 E79.89601
G0 F9000 X83.726 Y70.149
G1 F2700 E84.89601
G1 F1125 X164.844 Y151.267 E94.05332
G1 F2700 E89.05332
G0 F9000 X165.757 Y149.917
G1 F2700 E94.05332
G1 F1125 X85.051 Y69.212 E103.16405
G1 F2700 E98.16405
G0 F9000 X86.444 Y68.342
G1 F2700 E103.16405
G1 F1125 X166.67 Y148.568 E112.22065
G1 F2700 E107.22065
G0 F9000 X167.54 Y147.175
G1 F2700 E112.22065
G1 F1125 X87.856 Y67.491 E121.21607
G1 F2700 E116.21607
G0 F9000 X89.269 Y66.641
G1 F2700 E121.21607
G1 F1125 X168.339 Y145.712 E130.14223
G1 F2700 E125.14223
G0 F9000 X169.124 Y144.234
G1 F2700 E130.14223
G1 F1125 X90.736 Y65.846 E138.99135
G1 F2700 E133.99135
G0 F9000 X92.27 Y65.117
G1 F2700 E138.99135
G1 F1125 X169.909 Y142.756 E147.75591
G1 F2700 E142.75591
G0 F9000 X170.627 Y141.212
G1 F2700 E147.75591
G1 F1125 X93.816 Y64.4 E156.42706
G1 F2700 E151.42706
G0 F9000 X95.37 Y63.691
G1 F2700 E156.42706
G1 F1125 X171.273 Y139.594 E164.99564
G1 F2700 E159.99564
G0 F9000 X171.918 Y137.977
G1 F2700 E164.99564
G1 F1125 X97.002 Y63.061 E173.45281
G1 F2700 E168.45281
G0 F9000 X98.692 Y62.488
G1 F2700 E173.45281
G1 F1125 X172.541 Y136.337 E181.78952
G1 F2700 E176.78952
G0 F9000 X173.08 Y134.614
G1 F2700 E181.78952
G1 F1125 X100.382 Y61.915 E189.99636
G1 F2700 E184.99636
G0 F9000 X102.123 Y61.393
G1 F2700 E189.99636
G1 F1125 X173.573 Y132.844 E198.06231
G1 F2700 E193.06231
G0 F9000 X174.065 Y131.073
G1 F2700 E198.06231
G1 F1125 X103.948 Y60.956 E205.97772
G1 F2700 E200.97772
G0 F9000 X105.804 Y60.549
G1 F2700 E205.97772
G1 F1125 X174.484 Y129.23 E213.73097
G1 F2700 E208.73097
G0 F9000 X174.803 Y127.285
G1 F2700 E213.73097
G1 F1125 X107.676 Y60.159 E221.30879
G1 F2700 E216.30879
G0 F9000 X109.655 Y59.875
G1 F2700 E221.30879
G1 F1125 X175.121 Y125.341 E228.69915
G1 F2700 E223.69915
G0 F9000 X175.384 Y123.341
G1 F2700 E228.69915
G1 F1125 X111.696 Y59.652 E235.88886
G1 F2700 E230.88886
G0 F9000 X113.735 Y59.429
G1 F2700 E235.88886
G1 F1125 X175.527 Y121.221 E242.86448
G1 F2700 E237.86448
G0 F9000 X175.636 Y119.067
G1 F2700 E242.86448
G1 F1125 X115.934 Y59.365 E249.60416
G1 F2700 E244.60416
G0 F9000 X118.197 Y59.366
G1 F2700 E249.60416
G1 F1125 X175.677 Y116.846 E256.09299
G1 F2700 E251.09299
G0 F9000 X175.554 Y114.46
G1 F2700 E256.09299
G1 F1125 X120.488 Y59.394 E262.30932
G1 F2700 E257.30932
G0 F9000 X122.983 Y59.626
G1 F2700 E262.30932
G1 F1125 X175.431 Y112.074 E268.2301
G1 F2700 E263.2301
G0 F9000 X175.098 Y109.478
G1 F2700 E268.2301
G1 F1125 X125.515 Y59.896 E273.8274
G1 F2700 E268.8274
G0 F9000 X128.215 Y60.333
G1 F2700 E273.8274
G1 F1125 X174.649 Y106.766 E279.06922
G1 F2700 E274.06922
G0 F9000 X174.059 Y103.914
G1 F2700 E279.06922
G1 F1125 X131.116 Y60.971 E283.917
G1 F2700 E278.917
G0 F9000 X134.194 Y61.786
G1 F2700 E283.917
G1 F1125 X173.192 Y100.784 E288.31943
G1 F2700 E283.31943
G0 F9000 X172.065 Y97.395
G1 F2700 E288.31943
G1 F1125 X137.602 Y62.932 E292.20991
G1 F2700 E287.20991
G0 F9000 X141.468 Y64.535
G1 F2700 E292.20991
G1 F1125 X170.558 Y93.625 E295.49384
G1 F2700 E290.49384
G0 F9000 X171.886 Y93.011
G0 X171.527 Y92.239
G0 X169.473 Y88.294
G0 X168.177 Y88.981
G1 F2700 E295.49384
G1 F1125 X145.999 Y66.803 E297.99748
G1 F2700 E292.99748
G0 F9000 X146.756 Y65.545
G0 X150.359 Y67.721
G0 X151.122 Y68.239
G0 X153.558 Y70.045
G0 X152.671 Y71.212
G1 F2700 E297.99748
G1 F1125 X164.012 Y82.553 E299.27775
G1 F2700 E294.27775
G0 F9000 X165.446 Y82.018
G0 X168.229 Y86.125
G0 X169.064 Y87.52
G0 X171.312 Y91.769
G0 X172.005 Y93.281
G0 X173.776 Y97.731
G0 X174.305 Y99.309
G0 X175.586 Y103.941
G0 X175.939 Y105.565
G0 X176.71 Y110.301
G0 X176.887 Y111.957
G0 X177.142 Y116.731
G0 X177.138 Y118.386
G0 X176.874 Y123.199
G0 X176.688 Y124.86
G0 X175.911 Y129.579
G0 X175.55 Y131.206
G0 X174.268 Y135.813
G0 X173.729 Y137.397
G0 X171.943 Y141.866
G0 X171.251 Y143.353
G0 X168.99 Y147.608
G0 X168.127 Y149.034
G0 X165.446 Y152.982
G0 X164.425 Y154.318
G0 X161.319 Y157.968
G0 X160.655 Y158.665
G0 X158.468 Y160.787
G0 X157.46 Y159.723
G1 F2700 E299.27775
G1 F1125 X75.246 Y77.509 E308.55878
G1 F2700 E303.55878
G0 F9000 X74.177 Y78.703
G1 F2700 E308.55878
G1 F1125 X156.298 Y160.823 E317.82925
G1 F2700 E312.82925
G0 F9000 X155.099 Y161.887
G1 F2700 E317.82925
G1 F1125 X73.138 Y79.927 E327.08166
G1 F2700 E322.08166
G0 F9000 X72.1 Y81.151
G1 F2700 E327.08166
G1 F1125 X153.844 Y162.895 E336.30963
G1 F2700 E331.30963
G0 F9000 X152.558 Y163.871
G1 F2700 E336.30963
G1 F1125 X71.096 Y82.41 E345.50571
G1 F2700 E340.50571
G0 F9000 X70.154 Y83.731
G1 F2700 E345.50571
G1 F1125 X151.272 Y164.849 E354.66301
G1 F2700 E349.66301
G0 F9000 X149.947 Y165.786
G1 F2700 E354.66301
G1 F1125 X69.242 Y85.081 E363.77369
G1 F2700 E358.77369
G0 F9000 X68.329 Y86.431
G1 F2700 E363.77369
G1 F1125 X148.554 Y166.656 E372.83018
G1 F2700 E367.83018
G0 F9000 X147.142 Y167.507
G1 F2700 E372.83018
G1 F1125 X67.458 Y87.823 E381.8256
G1 F2700 E376.8256
G0 F9000 X66.661 Y89.288
G1 F2700 E381.8256
G1 F1125 X145.729 Y168.357 E390.75153
G1 F2700 E385.75153
G0 F9000 X144.262 Y169.152
G1 F2700 E390.75153
G1 F1125 X65.876 Y90.767 E399.60037
G1 F2700 E394.60037
G0 F9000 X65.093 Y92.246
G1 F2700 E399.60037
G1 F1125 X142.728 Y169.881 E408.36448
G1 F2700 E403.36448
G0 F9000 X141.183 Y170.598
G1 F2700 E408.36448
G1 F1125 X64.371 Y93.787 E417.03562
G1 F2700 E412.03562
G0 F9000 X63.725 Y95.404
G1 F2700 E417.03562
G1 F1125 X139.628 Y171.307 E425.60421
G1 F2700 E420.60421
G0 F9000 X137.996 Y171.937
G1 F2700 E425.60421
G1 F1125 X63.08 Y97.021 E434.06137
G1 F2700 E429.06137
G0 F9000 X62.458 Y98.661
G1 F2700 E434.06137
G1 F1125 X136.306 Y172.51 E442.39803
G1 F2700 E437.39803
G0 F9000 X134.616 Y173.083
G1 F2700 E442.39803
G1 F1125 X61.918 Y100.385 E450.60481
G1 F2700 E445.60481
G0 F9000 X61.425 Y102.155
G1 F2700 E450.60481
G1 F1125 X132.875 Y173.605 E458.6707
G1 F2700 E453.6707
G0 F9000 X131.05 Y174.042
G1 F2700 E458.6707
G1 F1125 X60.933 Y103.925 E466.58612
G1 F2700 E461.58612
G0 F9000 X60.514 Y105.769
G1 F2700 E466.58612
G1 F1125 X129.195 Y174.45 E474.33942
G1 F2700 E469.33942
G0 F9000 X127.322 Y174.839
G1 F2700 E474.33942
G1 F1125 X60.196 Y107.713 E481.91718
G1 F2700 E476.91718
G0 F9000 X59.877 Y109.658
G1 F2700 E481.91718
G1 F1125 X125.343 Y175.123 E489.30749
G1 F2700 E484.30749
G0 F9000 X123.303 Y175.346
G1 F2700 E489.30749
G1 F1125 X59.614 Y111.657 E496.49726
G1 F2700 E491.49726
G0 F9000 X59.471 Y113.777
G1 F2700 E496.49726
G1 F1125 X121.264 Y175.57 E503.47299
G1 F2700 E498.47299
G0 F9000 X119.065 Y175.634
G1 F2700 E503.47299
G1 F1125 X59.363 Y115.932 E510.21266
G1 F2700 E505.21266
G0 F9000 X59.322 Y118.153
G1 F2700 E510.21266
G1 F1125 X116.802 Y175.634 E516.70156
G1 F2700 E511.70156
G0 F9000 X114.51 Y175.604
G1 F2700 E516.70156
G1 F1125 X59.444 Y120.538 E522.91789
G1 F2700 E517.91789
G0 F9000 X59.568 Y122.924
G1 F2700 E522.91789
G1 F1125 X112.015 Y175.372 E528.83861
G1 F2700 E523.83861
G0 F9000 X109.483 Y175.102
G1 F2700 E528.83861
G1 F1125 X59.9 Y125.519 E534.43597
G1 F2700 E529.43597
G0 F9000 X60.349 Y128.231
G1 F2700 E534.43597
G1 F1125 X106.784 Y174.666 E539.67795
G1 F2700 E534.67795
G0 F9000 X103.882 Y174.027
G1 F2700 E539.67795
G1 F1125 X60.936 Y131.081 E544.52607
G1 F2700 E539.52607
G0 F9000 X61.808 Y134.215
G1 F2700 E544.52607
G1 F1125 X100.805 Y173.212 E548.92839
G1 F2700 E543.92839
G0 F9000 X97.396 Y172.066
G1 F2700 E548.92839
G1 F1125 X62.928 Y137.599 E552.81938
G1 F2700 E547.81938
G0 F9000 X64.442 Y141.375
G1 F2700 E552.81938
G1 F1125 X93.53 Y170.463 E556.10308
G1 F2700 E551.10308
G0 F9000 X92.915 Y171.795
G0 X91.385 Y171.085
G0 X88.769 Y169.771
G0 X88.999 Y168.195
G1 F2700 E556.10308
G1 F1125 X66.819 Y146.015 E558.60695
G1 F2700 E553.60695
G0 F9000 X65.936 Y147.48
G0 X66.466 Y148.36
G0 X69.554 Y152.982
G0 X70.986 Y152.445
G1 F2700 E558.60695
G1 F1125 X82.328 Y163.787 E559.88734
G1 F2700 E554.88734
G0 F300 X82.328 Y163.787 Z0.54
G0 F9000 X81.441 Y164.954
G0 X83.405 Y166.442
G0 X84.79 Y167.374
G0 X88.888 Y169.839
G0 X90.38 Y170.623
G0 X94.726 Y172.627
G0 X96.265 Y173.237
G0 X100.826 Y174.769
G0 X102.426 Y175.207
G0 X107.113 Y176.234
G0 X108.722 Y176.496
G0 X113.489 Y177.012
G0 X115.161 Y177.099
G0 X119.956 Y177.095
G0 X121.603 Y177.004
G0 X126.388 Y176.481
G0 X128.048 Y176.204
G0 X132.739 Y175.166
G0 X134.34 Y174.718
G0 X138.861 Y173.191
G0 X140.421 Y172.565
G0 X144.784 Y170.541
G0 X146.231 Y169.771
G0 X150.359 Y167.279
G0 X151.122 Y166.761
G0 X154.906 Y163.929
G0 X154.019 Y162.764
;TIME_ELAPSED:417.503721
;LAYER:-5
;TYPE:SUPPORT
G1 F2700 E559.88734
G1 F1125 X162.689 Y154.094 E561.11077
G1 X160.306 Y156.904 E561.4784
G1 X159.201 Y158.075 E561.63905
G1 X155.713 Y161.374 E562.11809
G1 X154.514 Y162.387 E562.27471
G1 X150.852 Y165.171 E562.73371
G1 X149.572 Y166.042 E562.8882
G1 X148.952 Y166.417 E562.9605
G1 X166.402 Y148.967 E565.42288
G1 X166.889 Y148.248 E565.50953
G1 X167.79 Y146.755 E565.68353
G1 X168.454 Y145.5 E565.8252
G1 X145.403 Y168.552 E569.07801
G1 X143.969 Y169.308 E569.23977
G1 X142.597 Y169.943 E569.39062
G1 X170.023 Y142.517 E573.26072
G1 X170.65 Y141.165 E573.40943
G1 X171.105 Y140.021 E573.53227
G1 X139.949 Y171.177 E577.92872
G1 X138.233 Y171.858 E578.11293
G1 X137.66 Y172.051 E578.17326
G1 X172.041 Y137.671 E583.02472
G1 X172.359 Y136.872 E583.11053
G1 X172.839 Y135.459 E583.25943
G1 X135.527 Y172.77 E588.52449
G1 X133.887 Y173.323 E588.69718
G1 X133.433 Y173.451 E588.74425
G1 X173.393 Y133.491 E594.38303
G1 X173.938 Y131.531 E594.58602
G1 X131.538 Y173.932 E600.56919
G1 X129.722 Y174.332 E600.75474
G1 X174.39 Y129.665 E607.0578
G1 X174.475 Y129.283 E607.09685
G1 X174.693 Y127.948 E607.23182
G1 X127.899 Y174.742 E613.83496
G1 X126.203 Y175.023 E614.0065
G1 X174.97 Y126.256 E620.88805
G1 X175.247 Y124.565 E621.05902
G1 X124.61 Y175.202 E628.20445
G1 X123.023 Y175.375 E628.36374
G1 X175.419 Y122.979 E635.75738
G1 X175.501 Y121.483 E635.90688
G1 X121.437 Y175.547 E643.53589
G1 X119.942 Y175.627 E643.68528
G1 X175.582 Y119.988 E651.53661
G1 X175.664 Y118.492 E651.68611
G1 X118.521 Y175.634 E659.74953
G1 X117.107 Y175.634 E659.89062
G1 X175.677 Y117.065 E668.15541
G1 X175.677 Y116.739 E668.18794
G1 X175.621 Y115.706 E668.29116
G1 X115.693 Y175.634 E676.74765
G1 X115.184 Y175.634 E676.79844
G1 X114.325 Y175.588 E676.88427
G1 X175.549 Y114.363 E685.52371
G1 X175.477 Y113.021 E685.65781
G1 X113.01 Y175.489 E694.47265
G1 X111.734 Y175.35 E694.60072
G1 X175.386 Y111.698 E703.58271
G1 X175.246 Y110.424 E703.71059
G1 X110.459 Y175.211 E712.85274
G1 X109.184 Y175.072 E712.98071
G1 X175.047 Y109.209 E722.27469
G1 X174.848 Y107.994 E722.39754
