;FLAVOR:Marlin
;TIME:16882
;Filament used: 12.8952m
;Layer height: 0.2
;MINX:41.19
;MINY:32.333
;MINZ:0.24
;MAXX:152.734
;MAXY:202.67
;MAXZ:11.09
;Generated with Cura_SteamEngine 5.3.0
M140 S50
M105
M190 S50
M104 S200
M105
M109 S200
M82 ;absolute extrusion mode
; Ender 3 Custom Start G-code
G92 E0 ; Reset Extruder
G28 ; Home all axes
G1 Z2.0 F3000 ; Move Z Axis up little to prevent scratching of Heat Bed
G1 X0.1 Y20 Z0.3 F5000.0 ; Move to start position
G1 X0.1 Y200.0 Z0.3 F1500.0 E15 ; Draw the first line
G1 X0.4 Y200.0 Z0.3 F5000.0 ; Move to side a little
G1 X0.4 Y20 Z0.3 F1500.0 E30 ; Draw the second line
G92 E0 ; Reset Extruder
G1 Z2.0 F3000 ; Move Z Axis up little to prevent scratching of Heat Bed
G1 X5 Y20 Z0.3 F5000.0 ; Move over to prevent blob squish
G92 E0
G92 E0
G1 F2700 E-5
;LAYER_COUNT:50
;LAYER:-6
M107
G0 F9000 X51.066 Y46.118 Z0.24
;TYPE:SUPPORT-INTERFACE
G1 F2700 E0
G1 F1125 X51.425 Y45.742 E0.0415
G1 X53.117 Y44.053 E0.23234
G1 X53.896 Y43.333 E0.31701
G1 X54.335 Y42.969 E0.36253
G1 X56.09 Y41.579 E0.54124
G1 X56.91 Y40.979 E0.62235
G1 X57.512 Y40.582 E0.67991
G1 X59.406 Y39.413 E0.85758
G1 X60.434 Y38.833 E0.9518
G1 X60.905 Y38.601 E0.99371
G1 X63.051 Y37.602 E1.18266
G1 X63.935 Y37.226 E1.25935
G1 X64.642 Y36.974 E1.31926
G1 X66.663 Y36.299 E1.48934
G1 X67.871 Y35.939 E1.58996
G1 X67.886 Y35.95 E1.59145
G1 X68.436 Y35.824 E1.63649
G1 X70.677 Y35.365 E1.81909
G1 X71.612 Y35.207 E1.89478
G1 X72.339 Y35.124 E1.95319
G1 X74.662 Y34.914 E2.13938
G1 X74.674 Y34.926 E2.14073
G1 X75.548 Y34.881 E2.21059
G1 X76.273 Y34.881 E2.26847
G1 X78.508 Y34.946 E2.44695
G1 X79.351 Y34.988 E2.51432
G1 X79.363 Y35.002 E2.5158
G1 X80.109 Y35.077 E2.57565
G1 X82.447 Y35.42 E2.76427
G1 X83.61 Y35.636 E2.8587
G1 X84.243 Y35.794 E2.91077
G1 X86.409 Y36.379 E3.08987
G1 X87.103 Y36.578 E3.1475
G1 X87.111 Y36.595 E3.149
G1 X87.647 Y36.767 E3.19393
G1 X90.137 Y37.762 E3.40798
G1 X91.016 Y38.15 E3.48468
G1 X91.694 Y38.493 E3.54533
G1 X93.095 Y39.251 E3.67248
G1 X93.715 Y39.537 E3.72698
G1 X94.366 Y39.744 E3.78151
G1 X95.043 Y39.865 E3.83641
G1 X95.751 Y39.9 E3.893
G1 X96.393 Y39.853 E3.94438
G1 X97.088 Y39.711 E4.001
G1 X97.724 Y39.495 E4.05462
G1 X98.344 Y39.193 E4.10967
G1 X98.769 Y38.925 E4.14978
G1 X99.799 Y38.304 E4.24578
G1 X102.744 Y36.71 E4.51309
G1 X103.723 Y36.232 E4.60006
G1 X104.978 Y35.74 E4.70766
G1 X107.997 Y34.706 E4.96239
G1 X108.97 Y34.412 E5.04353
G1 X110.323 Y34.121 E5.154
G1 X113.257 Y33.618 E5.39162
G1 X113.274 Y33.63 E5.39328
G1 X114.279 Y33.478 E5.47442
G1 X114.292 Y33.488 E5.47573
G1 X114.619 Y33.455 E5.50197
G1 X115.96 Y33.395 E5.60912
G1 X119.122 Y33.396 E5.86152
G1 X120.39 Y33.446 E5.96282
G1 X120.402 Y33.46 E5.96429
G1 X121.509 Y33.594 E6.0533
G1 X124.859 Y34.146 E6.32432
G1 X124.87 Y34.161 E6.3258
G1 X125.759 Y34.341 E6.39821
G1 X126.985 Y34.701 E6.5002
G1 X130.023 Y35.74 E6.7565
G1 X131.081 Y36.143 E6.84687
G1 X132.359 Y36.763 E6.96026
G1 X135.193 Y38.3 E7.21761
G1 X136.074 Y38.818 E7.29919
G1 X137.153 Y39.581 E7.40468
G1 X139.771 Y41.619 E7.66952
G1 X140.535 Y42.258 E7.74902
G1 X141.533 Y43.251 E7.8614
G1 X143.712 Y45.621 E8.11839
G1 X144.377 Y46.395 E8.19985
G1 X145.134 Y47.446 E8.30324
G1 X146.921 Y50.174 E8.56356
G1 X147.483 Y51.11 E8.65071
G1 X148.061 Y52.268 E8.75402
G1 X149.377 Y55.267 E9.01545
G1 X149.811 Y56.363 E9.10955
G1 X149.805 Y56.372 E9.11041
G1 X150.15 Y57.514 E9.20564
G1 X150.963 Y60.718 E9.4695
G1 X151.179 Y61.731 E9.55218
G1 X151.362 Y63.138 E9.66544
G1 X151.64 Y66.402 E9.92693
G1 X151.627 Y66.417 E9.92851
G1 X151.671 Y67.53 E10.01743
G1 X151.67 Y167.532 E18.00002
G1 X151.64 Y168.555 E18.08172
G1 X151.627 Y168.567 E18.08313
G1 X151.354 Y171.929 E18.35238
G1 X151.232 Y172.956 E18.43494
G1 X150.966 Y174.262 E18.54133
G1 X150.146 Y177.503 E18.80819
G1 X149.868 Y178.456 E18.88743
G1 X149.368 Y179.754 E18.99847
G1 X148.106 Y182.63 E19.24917
G1 X147.621 Y183.634 E19.33818
G1 X146.964 Y184.751 E19.44162
G1 X145.225 Y187.418 E19.69577
G1 X144.559 Y188.367 E19.78832
G1 X143.648 Y189.451 E19.90135
G1 X141.462 Y191.823 E20.15883
G1 X140.833 Y192.477 E20.23127
G1 X140.819 Y192.476 E20.23239
G1 X139.657 Y193.474 E20.35466
G1 X137.209 Y195.377 E20.60216
G1 X136.307 Y196.029 E20.69101
G1 X135.201 Y196.696 E20.7941
G1 X132.255 Y198.29 E21.06148
G1 X131.369 Y198.731 E21.14048
G1 X130.155 Y199.212 E21.24472
G1 X127.003 Y200.294 E21.51074
G1 X126.03 Y200.588 E21.59188
G1 X124.677 Y200.879 E21.70235
G1 X121.743 Y201.383 E21.93998
G1 X121.726 Y201.37 E21.94169
G1 X120.721 Y201.523 E22.02284
G1 X120.708 Y201.512 E22.0242
G1 X120.381 Y201.545 E22.05043
G1 X119.04 Y201.605 E22.15758
G1 X115.878 Y201.605 E22.40999
G1 X114.61 Y201.553 E22.51129
G1 X114.598 Y201.54 E22.5127
G1 X113.491 Y201.406 E22.60171
G1 X110.141 Y200.854 E22.87273
G1 X110.13 Y200.84 E22.87415
G1 X109.24 Y200.658 E22.94667
G1 X108.016 Y200.299 E23.04849
G1 X104.851 Y199.214 E23.31556
G1 X103.918 Y198.856 E23.39534
G1 X102.633 Y198.233 E23.50933
G1 X99.809 Y196.702 E23.76575
G1 X98.928 Y196.183 E23.84737
G1 X97.797 Y195.382 E23.958
G1 X95.311 Y193.448 E24.20942
G1 X94.463 Y192.739 E24.29766
G1 X93.537 Y191.822 E24.40168
G1 X91.347 Y189.446 E24.65962
G1 X90.621 Y188.602 E24.74849
G1 X89.86 Y187.546 E24.85239
G1 X88.078 Y184.825 E25.11203
G1 X87.517 Y183.89 E25.19907
G1 X86.939 Y182.732 E25.30238
G1 X85.616 Y179.715 E25.56535
G1 X85.226 Y178.727 E25.65014
G1 X84.848 Y177.478 E25.7543
G1 X84.054 Y174.351 E26.01183
G1 X83.82 Y173.265 E26.10051
G1 X83.636 Y171.832 E26.21584
G1 X83.36 Y168.599 E26.47485
G1 X83.374 Y168.583 E26.47655
G1 X83.329 Y167.45 E26.56706
G1 X83.328 Y128.025 E29.71413
G1 X83.285 Y127.375 E29.76613
G1 X83.162 Y126.73 E29.81855
G1 X82.939 Y126.047 E29.8759
G1 X82.665 Y125.468 E29.92703
G1 X82.273 Y124.853 E29.98525
G1 X81.859 Y124.358 E30.03676
G1 X81.339 Y123.873 E30.09352
G1 X80.803 Y123.489 E30.14615
G1 X80.215 Y123.17 E30.19955
G1 X79.568 Y122.915 E30.25507
G1 X78.897 Y122.748 E30.31026
G1 X77.93 Y122.662 E30.38776
G1 X77.019 Y122.66 E30.46048
G1 X75.957 Y122.583 E30.54547
G1 X75.065 Y122.457 E30.61738
G1 X73.938 Y122.218 E30.70935
G1 X73.055 Y121.958 E30.78282
G1 X73.043 Y121.967 E30.78402
G1 X72.005 Y121.576 E30.87256
G1 X70.955 Y121.1 E30.96459
G1 X70.029 Y120.588 E31.04905
G1 X69.127 Y119.999 E31.13504
G1 X68.292 Y119.361 E31.21893
G1 X67.482 Y118.646 E31.30517
G1 X66.745 Y117.891 E31.38939
G1 X66.049 Y117.066 E31.47555
G1 X65.352 Y116.099 E31.5707
G1 X47.378 Y87.067 E34.29635
G1 X46.886 Y86.216 E34.37482
G1 X45.865 Y84.328 E34.54615
G1 X45.393 Y83.378 E34.63083
G1 X45.133 Y82.776 E34.68317
G1 X44.307 Y80.707 E34.86101
G1 X43.94 Y79.687 E34.94754
G1 X43.737 Y79.011 E35.00388
G1 X43.158 Y76.86 E35.18169
G1 X42.924 Y75.848 E35.26461
G1 X42.818 Y75.277 E35.31096
G1 X42.466 Y72.873 E35.50491
G1 X42.325 Y71.578 E35.60889
G1 X42.338 Y71.565 E35.61036
G1 X42.319 Y71.212 E35.63858
G1 X42.252 Y68.984 E35.81651
G1 X42.261 Y67.831 E35.90855
G1 X42.271 Y67.471 E35.9373
G1 X42.284 Y67.459 E35.93871
G1 X42.504 Y64.881 E36.14524
G1 X42.64 Y63.816 E36.23095
G1 X42.73 Y63.33 E36.2704
G1 X43.186 Y61.107 E36.45154
G1 X43.497 Y59.821 E36.55716
G1 X43.513 Y59.811 E36.55866
G1 X43.636 Y59.413 E36.59192
G1 X44.36 Y57.218 E36.77642
G1 X44.692 Y56.323 E36.85262
G1 X44.979 Y55.662 E36.91014
G1 X45.785 Y53.896 E37.0651
G1 X45.805 Y53.89 E37.06676
G1 X46.409 Y52.671 E37.17536
G1 X46.743 Y52.105 E37.22782
G1 X47.965 Y50.124 E37.41362
G1 X48.501 Y49.32 E37.49075
G1 X48.825 Y48.879 E37.53443
G1 X50.371 Y46.909 E37.73433
G1 X50.388 Y46.908 E37.73569
G1 X51.066 Y46.118 E37.81879
G0 F9000 X51.154 Y46.628
G1 F1125 X151.27 Y146.745 E49.1208
G1 F2700 E44.1208
G0 F9000 X151.27 Y149.007
G1 F2700 E49.1208
G1 F1125 X50.127 Y47.864 E60.5387
G1 F2700 E55.5387
G0 F9000 X49.133 Y49.133
G1 F2700 E60.5387
G1 F1125 X151.27 Y151.27 E72.06881
G1 F2700 E67.06881
G0 F9000 X151.27 Y153.533
G1 F2700 E72.06881
G1 F1125 X48.215 Y50.478 E83.70255
G1 F2700 E78.70255
G0 F9000 X47.352 Y51.877
G1 F2700 E83.70255
G1 F1125 X151.27 Y155.796 E95.43376
G1 F2700 E90.43376
G0 F9000 X151.27 Y158.058
G1 F2700 E95.43376
G1 F1125 X46.532 Y53.32 E107.2575
G1 F2700 E102.2575
G0 F9000 X45.791 Y54.842
G1 F2700 E107.2575
G1 F1125 X151.27 Y160.321 E119.16488
G1 F2700 E114.16488
G0 F9000 X151.27 Y162.584
G1 F2700 E119.16488
G1 F1125 X45.091 Y56.405 E131.15128
G1 F2700 E126.15128
G0 F9000 X44.498 Y58.074
G1 F2700 E131.15128
G1 F1125 X151.27 Y164.847 E143.20468
G1 F2700 E138.20468
G0 F9000 X151.27 Y167.109
G1 F2700 E143.20468
G1 F1125 X43.94 Y59.779 E155.32102
G1 F2700 E150.32102
G0 F9000 X43.493 Y61.595
G1 F2700 E155.32102
G1 F1125 X151.168 Y169.27 E167.4763
G1 F2700 E162.4763
G0 F9000 X150.999 Y171.363
G1 F2700 E167.4763
G1 F1125 X43.11 Y63.474 E179.65575
G1 F2700 E174.65575
G0 F9000 X42.853 Y65.48
G1 F2700 E179.65575
G1 F1125 X150.74 Y173.367 E191.83496
G1 F2700 E186.83496
G0 F9000 X150.315 Y175.205
G1 F2700 E191.83496
G1 F1125 X42.668 Y67.558 E203.98709
G1 F2700 E198.98709
G0 F9000 X42.677 Y69.83
G1 F2700 E203.98709
G1 F1125 X149.857 Y177.01 E216.08649
G1 F2700 E211.08649
G0 F9000 X149.328 Y178.744
G1 F2700 E216.08649
G1 F1125 X42.796 Y72.211 E228.1128
G1 F2700 E223.1128
G0 F9000 X43.158 Y74.836
G1 F2700 E228.1128
G1 F1125 X148.67 Y180.348 E240.02391
G1 F2700 E235.02391
G0 F9000 X147.98 Y181.921
G1 F2700 E240.02391
G1 F1125 X43.813 Y77.754 E251.78318
G1 F2700 E246.78318
G0 F9000 X44.894 Y81.098
G1 F2700 E251.78318
G1 F1125 X147.257 Y183.461 E263.3388
G1 F2700 E258.3388
G0 F9000 X146.407 Y184.873
G1 F2700 E263.3388
G1 F1125 X46.859 Y85.326 E274.57658
G1 F2700 E269.57658
G0 F9000 X45.841 Y86.513
G0 X49.058 Y91.805
G0 X50.304 Y91.033
G1 F2700 E274.57658
G1 F1125 X145.514 Y186.243 E285.32471
G1 F2700 E280.32471
G0 F9000 X144.608 Y187.6
G1 F2700 E285.32471
G1 F1125 X83.51 Y126.502 E292.22198
G1 F2700 E287.22198
G0 F9000 X83.727 Y128.982
G1 F2700 E292.22198
G1 F1125 X143.614 Y188.869 E298.98254
G1 F2700 E293.98254
G0 F9000 X142.542 Y190.06
G1 F2700 E298.98254
G1 F1125 X83.727 Y131.245 E305.62209
G1 F2700 E300.62209
G0 F9000 X83.727 Y133.508
G1 F2700 E305.62209
G1 F1125 X141.457 Y191.237 E312.13909
G1 F2700 E307.13909
G0 F9000 X140.327 Y192.37
G1 F2700 E312.13909
G1 F1125 X83.727 Y135.77 E318.52859
G1 F2700 E313.52859
G0 F9000 X83.727 Y138.033
G1 F2700 E318.52859
G1 F1125 X139.096 Y193.402 E324.77912
G1 F2700 E319.77912
G0 F9000 X137.822 Y194.391
G1 F2700 E324.77912
G1 F1125 X83.727 Y140.296 E330.88583
G1 F2700 E325.88583
G0 F9000 X83.727 Y142.559
G1 F2700 E330.88583
G1 F1125 X136.536 Y195.367 E336.84731
G1 F2700 E331.84731
G0 F9000 X135.159 Y196.253
G1 F2700 E336.84731
G1 F1125 X83.727 Y144.821 E342.6534
G1 F2700 E337.6534
G0 F9000 X83.727 Y147.084
G1 F2700 E342.6534
G1 F1125 X133.696 Y197.053 E348.29433
G1 F2700 E343.29433
G0 F9000 X132.228 Y197.848
G1 F2700 E348.29433
G1 F1125 X83.727 Y149.347 E353.76954
G1 F2700 E348.76954
G0 F9000 X83.727 Y151.61
G1 F2700 E353.76954
G1 F1125 X130.687 Y198.569 E359.07074
G1 F2700 E354.07074
G0 F9000 X129.029 Y199.174
G1 F2700 E359.07074
G1 F1125 X83.727 Y153.872 E364.18482
G1 F2700 E359.18482
G0 F9000 X83.727 Y156.135
G1 F2700 E364.18482
G1 F1125 X127.344 Y199.752 E369.10868
G1 F2700 E364.10868
G0 F9000 X125.599 Y200.269
G1 F2700 E369.10868
G1 F1125 X83.727 Y158.398 E373.8355
G1 F2700 E368.8355
G0 F9000 X83.727 Y160.661
G1 F2700 E373.8355
G1 F1125 X123.705 Y200.638 E378.34851
G1 F2700 E373.34851
G0 F9000 X121.774 Y200.97
G1 F2700 E378.34851
G1 F1125 X83.727 Y162.923 E382.64358
G1 F2700 E377.64358
G0 F9000 X83.727 Y165.186
G1 F2700 E382.64358
G1 F1125 X119.714 Y201.173 E386.7061
G1 F2700 E381.7061
G0 F9000 X117.482 Y201.204
G1 F2700 E386.7061
G1 F1125 X83.728 Y167.449 E390.5166
G1 F2700 E385.5166
G0 F9000 X83.867 Y169.851
G1 F2700 E390.5166
G1 F1125 X115.191 Y201.175 E394.05273
G1 F2700 E389.05273
G0 F9000 X112.607 Y200.854
G1 F2700 E394.05273
G1 F1125 X84.106 Y172.353 E397.27017
G1 F2700 E392.27017
G0 F9000 X84.679 Y175.189
G1 F2700 E397.27017
G1 F1125 X109.866 Y200.376 E400.11349
G1 F2700 E395.11349
G0 F9000 X106.626 Y199.398
G1 F2700 E400.11349
G1 F1125 X85.509 Y178.281 E402.49736
G1 F2700 E397.49736
G0 F9000 X87.124 Y182.159
G1 F2700 E402.49736
G1 F1125 X102.864 Y197.9 E404.27429
G1 F2700 E399.27429
G0 F9000 X102.144 Y199.179
G0 X98.249 Y197.008
G0 X95.905 Y195.26
G0 X96.805 Y194.102
G1 F2700 E404.27429
G1 F1125 X90.628 Y187.926 E404.97154
G1 F2700 E399.97154
G0 F9000 X88.989 Y188.156
G0 X86.637 Y184.492
G0 X85.929 Y183.08
G0 X84.265 Y179.195
G0 X83.789 Y177.644
G0 X82.754 Y173.331
G0 X82.578 Y171.94
G0 X82.326 Y168.394
G0 X79.232 Y123.928
G0 X79.492 Y122.484
G1 F2700 E404.97154
G1 F1125 X53.981 Y96.974 E407.85139
G1 F2700 E402.85139
G0 F9000 X52.735 Y97.746
G0 X56.412 Y103.687
G0 X57.659 Y102.914
G1 F2700 E407.85139
G1 F1125 X77.001 Y122.256 E410.03488
G1 F2700 E405.03488
G0 F9000 X74.386 Y121.903
G1 F2700 E410.03488
G1 F1125 X61.337 Y108.854 E411.50796
G1 F2700 E406.50796
G0 F9000 X60.089 Y109.627
G0 X63.766 Y115.569
G0 X65.015 Y114.795
G1 F2700 E411.50796
G1 F1125 X70.746 Y120.526 E412.15493
G1 F2700 E407.15493
G0 F9000 X69.568 Y121.549
G0 X68.443 Y120.815
G0 X66.827 Y119.488
G0 X65.883 Y118.522
G0 X64.52 Y116.768
G0 X46.412 Y87.525
G0 X44.432 Y83.837
G0 X42.933 Y80.033
G0 X41.883 Y76.074
G0 X41.301 Y72.014
G0 X41.19 Y67.835
G0 X41.559 Y63.849
G0 X42.401 Y59.825
G0 X43.702 Y55.929
G0 X45.46 Y52.196
G0 X47.628 Y48.711
G0 X49.915 Y45.84
G0 X51.223 Y44.437
G0 X52.26 Y45.472
G1 F2700 E412.15493
G1 F1125 X151.27 Y144.482 E423.33203
G1 F2700 E418.33203
G0 F9000 X151.27 Y142.219
G1 F2700 E423.33203
G1 F1125 X53.392 Y44.341 E434.38135
G1 F2700 E429.38135
G0 F9000 X54.59 Y43.277
G1 F2700 E434.38135
G1 F1125 X151.27 Y139.956 E445.29536
G1 F2700 E440.29536
G0 F9000 X151.27 Y137.694
G1 F2700 E445.29536
G1 F1125 X55.852 Y42.276 E456.06697
G1 F2700 E451.06697
G0 F9000 X57.143 Y41.304
G1 F2700 E456.06697
G1 F1125 X151.27 Y135.431 E466.69284
G1 F2700 E461.69284
G0 F9000 X151.27 Y133.168
G1 F2700 E466.69284
G1 F1125 X58.527 Y40.425 E477.16247
G1 F2700 E472.16247
G0 F9000 X59.937 Y39.573
G1 F2700 E477.16247
G1 F1125 X151.27 Y130.905 E487.47288
G1 F2700 E482.47288
G0 F9000 X151.27 Y128.643
G1 F2700 E487.47288
G1 F1125 X61.426 Y38.798 E497.6153
G1 F2700 E492.6153
G0 F9000 X62.97 Y38.08
G1 F2700 E497.6153
G1 F1125 X151.27 Y126.38 E507.58337
G1 F2700 E502.58337
G0 F9000 X151.27 Y124.117
G1 F2700 E507.58337
G1 F1125 X64.575 Y37.422 E517.37025
G1 F2700 E512.37025
G0 F9000 X66.267 Y36.852
G1 F2700 E517.37025
G1 F1125 X151.27 Y121.855 E526.96612
G1 F2700 E521.96612
G0 F9000 X151.27 Y119.592
G1 F2700 E526.96612
G1 F1125 X68.01 Y36.331 E536.36528
G1 F2700 E531.36528
G0 F9000 X69.878 Y35.937
G1 F2700 E536.36528
G1 F1125 X151.27 Y117.329 E545.55352
G1 F2700 E540.55352
G0 F9000 X151.27 Y115.066
G1 F2700 E545.55352
G1 F1125 X71.793 Y35.589 E554.52557
G1 F2700 E549.52557
G0 F9000 X73.855 Y35.388
G1 F2700 E554.52557
G1 F1125 X151.27 Y112.804 E563.2649
G1 F2700 E558.2649
G0 F9000 X151.27 Y110.541
G1 F2700 E563.2649
G1 F1125 X76.01 Y35.281 E571.7609
G1 F2700 E566.7609
G0 F9000 X78.333 Y35.341
G1 F2700 E571.7609
G1 F1125 X151.27 Y108.278 E579.99466
G1 F2700 E574.99466
G0 F9000 X151.27 Y106.015
G1 F2700 E579.99466
G1 F1125 X80.844 Y35.589 E587.94495
G1 F2700 E582.94495
G0 F9000 X83.551 Y36.034
G1 F2700 E587.94495
G1 F1125 X151.27 Y103.753 E595.58966
G1 F2700 E590.58966
G0 F9000 X151.27 Y101.49
G1 F2700 E595.58966
G1 F1125 X86.642 Y36.862 E602.88542
G1 F2700 E597.88542
G0 F9000 X90.325 Y38.282
G1 F2700 E602.88542
G1 F1125 X151.27 Y99.227 E609.76542
G1 F2700 E604.76542
G0 F9000 X151.27 Y96.964
G1 F2700 E609.76542
G1 F1125 X94.473 Y40.167 E616.17716
G1 F2700 E611.17716
G0 F9000 X96.754 Y40.186
G1 F2700 E616.17716
G1 F1125 X151.27 Y94.702 E622.3314
G1 F2700 E617.3314
G0 F9000 X151.27 Y92.439
G1 F2700 E622.3314
G1 F1125 X98.427 Y39.596 E628.29677
G1 F2700 E623.29677
G0 F9000 X99.839 Y38.745
G1 F2700 E628.29677
G1 F1125 X151.27 Y90.176 E634.10275
G1 F2700 E629.10275
G0 F9000 X151.27 Y87.913
G1 F2700 E634.10275
G1 F1125 X101.302 Y37.945 E639.74357
G1 F2700 E634.74357
G0 F9000 X102.77 Y37.15
G1 F2700 E639.74357
G1 F1125 X151.27 Y85.651 E645.21872
G1 F2700 E640.21872
