;FLAVOR:Marlin
;TIME:13680
;Filament used: 8.831m
;Layer height: 0.2
;MINX:60.783
;MINY:70.687
;MINZ:0.24
;MAXX:158.049
;MAXY:161.602
;MAXZ:16.09
;Generated with Cura_SteamEngine 5.3.0
M140 S50
M105
M190 S50
M104 S200
M105
M109 S200
M82 ;absolute extrusion mode
; Ender 3 Custom Start G-code
G92 E0 ; Reset Extruder
G28 ; Home all axes
G1 Z2.0 F3000 ; Move Z Axis up little to prevent scratching of Heat Bed
G1 X0.1 Y20 Z0.3 F5000.0 ; Move to start position
G1 X0.1 Y200.0 Z0.3 F1500.0 E15 ; Draw the first line
G1 X0.4 Y200.0 Z0.3 F5000.0 ; Move to side a little
G1 X0.4 Y20 Z0.3 F1500.0 E30 ; Draw the second line
G92 E0 ; Reset Extruder
G1 Z2.0 F3000 ; Move Z Axis up little to prevent scratching of Heat Bed
G1 X5 Y20 Z0.3 F5000.0 ; Move over to prevent blob squish
G92 E0
G92 E0
G1 F2700 E-5
;LAYER_COUNT:75
;LAYER:-6
M107
G0 F9000 X71.876 Y76.538 Z0.24
;TYPE:SUPPORT-INTERFACE
G1 F2700 E0
G1 F1125 X72.704 Y75.752 E0.09113
G1 X73.393 Y75.182 E0.16251
G1 X74.327 Y74.51 E0.25436
G1 X75.161 Y74.003 E0.33227
G1 X76.186 Y73.471 E0.42445
G1 X77.246 Y73.03 E0.5161
G1 X78.092 Y72.743 E0.58741
G1 X79.228 Y72.443 E0.6812
G1 X80.251 Y72.257 E0.7642
G1 X81.41 Y72.138 E0.8572
G1 X82.392 Y72.105 E0.93563
G1 X89.362 Y72.106 E1.49201
G1 X90.422 Y72.144 E1.57668
G1 X91.562 Y72.275 E1.66827
G1 X92.591 Y72.472 E1.75191
G1 X93.566 Y72.727 E1.83235
G1 X94.566 Y73.066 E1.91664
G1 X95.548 Y73.484 E2.00183
G1 X96.559 Y74.01 E2.0928
G1 X97.404 Y74.525 E2.1718
G1 X98.471 Y75.284 E2.27632
G1 X99.047 Y75.612 E2.32923
G1 X99.68 Y75.875 E2.38395
G1 X100.369 Y76.062 E2.44094
G1 X100.999 Y76.151 E2.49172
G1 X101.713 Y76.162 E2.54873
G1 X102.358 Y76.089 E2.60054
G1 X103.057 Y75.92 E2.65795
G1 X103.689 Y75.675 E2.71205
G1 X104.273 Y75.363 E2.76491
G1 X104.86 Y74.942 E2.82257
G1 X105.18 Y74.687 E2.85523
G1 X105.98 Y74.117 E2.93364
G1 X106.807 Y73.615 E3.01087
G1 X107.829 Y73.085 E3.10276
G1 X108.823 Y72.666 E3.18887
G1 X109.825 Y72.327 E3.27331
G1 X110.874 Y72.055 E3.35981
G1 X111.827 Y71.882 E3.43713
G1 X112.964 Y71.753 E3.52847
G1 X114.038 Y71.717 E3.61425
G1 X121.008 Y71.717 E4.17063
G1 X122.068 Y71.756 E4.2553
G1 X123.208 Y71.887 E4.3469
G1 X124.237 Y72.084 E4.43053
G1 X125.213 Y72.339 E4.51105
G1 X126.215 Y72.68 E4.59554
G1 X127.193 Y73.096 E4.68038
G1 X128.205 Y73.622 E4.77142
G1 X129.052 Y74.137 E4.85055
G1 X129.921 Y74.76 E4.9359
G1 X130.795 Y75.493 E5.02695
G1 X131.441 Y76.115 E5.09854
G1 X132.157 Y76.903 E5.18353
G1 X132.309 Y77.092 E5.20289
G1 X132.757 Y77.603 E5.25713
G1 X133.254 Y78.046 E5.31028
G1 X133.831 Y78.444 E5.36623
G1 X134.463 Y78.767 E5.42289
G1 X135.076 Y78.987 E5.47488
G1 X135.771 Y79.14 E5.53168
G1 X136.411 Y79.2 E5.58299
G1 X137.324 Y79.154 E5.65597
G1 X140.464 Y78.705 E5.90916
G1 X140.476 Y78.715 E5.91041
G1 X141.427 Y78.617 E5.98673
G1 X142.499 Y78.584 E6.07234
G1 X143.268 Y78.603 E6.13374
G1 X143.282 Y78.617 E6.13532
G1 X143.634 Y78.64 E6.16348
G1 X144.685 Y78.766 E6.24798
G1 X145.66 Y78.953 E6.32722
G1 X146.701 Y79.232 E6.41325
G1 X147.706 Y79.582 E6.4982
G1 X148.756 Y80.043 E6.58974
G1 X149.614 Y80.491 E6.667
G1 X150.453 Y81.011 E6.7458
G1 X150.66 Y81.153 E6.76584
G1 X151.453 Y81.735 E6.84435
G1 X152.217 Y82.376 E6.92396
G1 X153.028 Y83.179 E7.01506
G1 X153.67 Y83.905 E7.09243
G1 X154.315 Y84.749 E7.17722
G1 X154.907 Y85.652 E7.26341
G1 X155.418 Y86.575 E7.34762
G1 X155.897 Y87.629 E7.44004
G1 X156.265 Y88.623 E7.52465
G1 X156.56 Y89.648 E7.60979
G1 X156.783 Y90.693 E7.69508
G1 X156.909 Y91.587 E7.76715
G1 X156.986 Y92.639 E7.85135
G1 X157 Y93.695 E7.93565
G1 X156.987 Y93.708 E7.93712
G1 X156.91 Y94.769 E8.02204
G1 X150.982 Y147.275 E12.23992
G1 X150.832 Y148.281 E12.32111
G1 X150.614 Y149.251 E12.40047
G1 X150.286 Y150.351 E12.4921
G1 X149.95 Y151.226 E12.56692
G1 X149.957 Y151.236 E12.56789
G1 X149.488 Y152.229 E12.65556
G1 X148.919 Y153.249 E12.74879
G1 X148.333 Y154.129 E12.83318
G1 X147.683 Y154.969 E12.91797
G1 X146.907 Y155.821 E13.00996
G1 X146.185 Y156.513 E13.08979
G1 X145.378 Y157.181 E13.17341
G1 X144.501 Y157.805 E13.25933
G1 X143.672 Y158.309 E13.33678
G1 X142.65 Y158.839 E13.42867
G1 X141.658 Y159.257 E13.5146
G1 X140.655 Y159.597 E13.59914
G1 X139.61 Y159.868 E13.68532
G1 X138.648 Y160.043 E13.76337
G1 X137.515 Y160.171 E13.85438
G1 X136.441 Y160.207 E13.94016
G1 X129.471 Y160.207 E14.49654
G1 X128.411 Y160.168 E14.58121
G1 X127.27 Y160.037 E14.67289
G1 X126.242 Y159.84 E14.75644
G1 X125.265 Y159.584 E14.83706
G1 X124.258 Y159.242 E14.92195
G1 X123.29 Y158.83 E15.00593
G1 X122.336 Y158.34 E15.09154
G1 X121.424 Y157.784 E15.1768
G1 X120.509 Y157.145 E15.26589
G1 X120.508 Y157.137 E15.26653
G1 X120.095 Y156.858 E15.30632
G1 X119.463 Y156.541 E15.36276
G1 X118.846 Y156.323 E15.41499
G1 X118.171 Y156.178 E15.47011
G1 X117.489 Y156.118 E15.52476
G1 X116.833 Y156.143 E15.57716
G1 X116.146 Y156.254 E15.63271
G1 X115.507 Y156.444 E15.68592
G1 X114.879 Y156.72 E15.74068
G1 X114.295 Y157.07 E15.79503
G1 X113.657 Y157.564 E15.85944
G1 X112.855 Y158.135 E15.93803
G1 X112.026 Y158.638 E16.01543
G1 X111.004 Y159.168 E16.10733
G1 X110.014 Y159.585 E16.19308
G1 X109.009 Y159.926 E16.27779
G1 X107.964 Y160.197 E16.36397
G1 X107.002 Y160.372 E16.44202
G1 X105.869 Y160.5 E16.53304
G1 X104.795 Y160.536 E16.61882
G1 X97.825 Y160.536 E17.17519
G1 X96.765 Y160.497 E17.25986
G1 X95.624 Y160.366 E17.35154
G1 X94.596 Y160.169 E17.43509
G1 X93.619 Y159.913 E17.51571
G1 X92.612 Y159.571 E17.60061
G1 X91.644 Y159.159 E17.68458
G1 X90.69 Y158.669 E17.77019
G1 X89.78 Y158.115 E17.85524
G1 X88.908 Y157.49 E17.94088
G1 X88.035 Y156.756 E18.03192
G1 X87.382 Y156.128 E18.10424
G1 X86.668 Y155.34 E18.18912
G1 X86.102 Y154.69 E18.25792
G1 X85.595 Y154.24 E18.31204
G1 X85.072 Y153.881 E18.36267
G1 X84.414 Y153.542 E18.42176
G1 X83.8 Y153.322 E18.47382
G1 X83.12 Y153.171 E18.52942
G1 X82.454 Y153.107 E18.58283
G1 X81.901 Y153.118 E18.62698
G1 X81.507 Y153.157 E18.65859
G1 X78.369 Y153.608 E18.91165
G1 X78.357 Y153.597 E18.91295
G1 X77.405 Y153.695 E18.98934
G1 X76.333 Y153.728 E19.07496
G1 X75.564 Y153.709 E19.13636
G1 X75.55 Y153.695 E19.13794
G1 X75.198 Y153.672 E19.1661
G1 X74.149 Y153.546 E19.25044
G1 X73.173 Y153.359 E19.32976
G1 X72.131 Y153.08 E19.41587
G1 X71.131 Y152.732 E19.50039
G1 X70.145 Y152.305 E19.58616
G1 X69.207 Y151.815 E19.67064
G1 X68.379 Y151.301 E19.74843
G1 X68.172 Y151.159 E19.76847
G1 X67.379 Y150.577 E19.84699
G1 X66.62 Y149.939 E19.92613
G1 X65.922 Y149.257 E20.00403
G1 X65.147 Y148.39 E20.09686
G1 X64.569 Y147.633 E20.17289
G1 X63.924 Y146.658 E20.2662
G1 X63.409 Y145.727 E20.35113
G1 X62.934 Y144.682 E20.44276
G1 X62.588 Y143.763 E20.52115
G1 X62.307 Y142.806 E20.60077
G1 X62.059 Y141.692 E20.69187
G1 X61.921 Y140.714 E20.77071
G1 X61.846 Y139.66 E20.85506
G1 X61.832 Y138.617 E20.93832
G1 X61.846 Y138.604 E20.93985
G1 X61.922 Y137.543 E21.02476
G1 X67.828 Y85.193 E25.23007
G1 X68.005 Y84.01 E25.32555
G1 X68.258 Y82.913 E25.41542
G1 X68.527 Y82.025 E25.48948
G1 X68.884 Y81.084 E25.56982
G1 X68.877 Y81.074 E25.5708
G1 X69.386 Y80 E25.66567
G1 X69.919 Y79.056 E25.7522
G1 X70.503 Y78.175 E25.83658
G1 X71.144 Y77.351 E25.91991
G1 X71.876 Y76.538 E26.00724
G0 F9000 X72.228 Y76.754
G1 F1125 X148.552 Y153.078 E34.62335
G1 F2700 E29.62335
G0 F9000 X147.614 Y154.403
G1 F2700 E34.62335
G1 F1125 X71.173 Y77.962 E43.25267
G1 F2700 E38.25267
G0 F9000 X70.243 Y79.294
G1 F2700 E43.25267
G1 F1125 X146.553 Y155.604 E51.8672
G1 F2700 E46.8672
G0 F9000 X145.36 Y156.674
G1 F2700 E51.8672
G1 F1125 X69.46 Y80.774 E60.43545
G1 F2700 E55.43545
G0 F9000 X68.829 Y82.405
G1 F2700 E60.43545
G1 F1125 X144.039 Y157.616 E68.92586
G1 F2700 E63.92586
G0 F9000 X142.583 Y158.422
G1 F2700 E68.92586
G1 F1125 X68.377 Y84.217 E77.30282
G1 F2700 E72.30282
G0 F9000 X68.114 Y86.216
G1 F2700 E77.30282
G1 F1125 X140.966 Y159.068 E85.52698
G1 F2700 E80.52698
G0 F9000 X139.174 Y159.539
G1 F2700 E85.52698
G1 F1125 X67.885 Y88.25 E93.5747
G1 F2700 E88.5747
G0 F9000 X67.655 Y90.283
G1 F2700 E93.5747
G1 F1125 X137.154 Y159.782 E101.42035
G1 F2700 E96.42035
G0 F9000 X134.915 Y159.806
G1 F2700 E101.42035
G1 F1125 X67.426 Y92.317 E109.03909
G1 F2700 E104.03909
G0 F9000 X67.197 Y94.349
G1 F2700 E109.03909
G1 F1125 X132.653 Y159.806 E116.42839
G1 F2700 E111.42839
G0 F9000 X130.39 Y159.806
G1 F2700 E116.42839
G1 F1125 X66.967 Y96.383 E123.58812
G1 F2700 E118.58812
G0 F9000 X66.738 Y98.416
G1 F2700 E123.58812
G1 F1125 X128.043 Y159.721 E130.50876
G1 F2700 E125.50876
G0 F9000 X125.197 Y159.138
G1 F2700 E130.50876
G1 F1125 X66.509 Y100.45 E137.13397
G1 F2700 E132.13397
G0 F9000 X66.279 Y102.483
G1 F2700 E137.13397
G1 F1125 X120.332 Y156.536 E143.23594
G1 F2700 E138.23594
G0 F9000 X117.26 Y155.726
G1 F2700 E143.23594
G1 F1125 X66.05 Y104.516 E149.01697
G1 F2700 E144.01697
G0 F9000 X65.821 Y106.55
G1 F2700 E149.01697
G1 F1125 X115.347 Y156.076 E154.60789
G1 F2700 E149.60789
G0 F9000 X113.886 Y156.878
G1 F2700 E154.60789
G1 F1125 X65.591 Y108.583 E160.05985
G1 F2700 E155.05985
G0 F9000 X65.362 Y110.616
G1 F2700 E160.05985
G1 F1125 X112.579 Y157.834 E165.39017
G1 F2700 E160.39017
G0 F9000 X111.132 Y158.65
G1 F2700 E165.39017
G1 F1125 X65.132 Y112.649 E170.5831
G1 F2700 E165.5831
G0 F9000 X64.903 Y114.683
G1 F2700 E170.5831
G1 F1125 X109.541 Y159.321 E175.62222
G1 F2700 E170.62222
G0 F9000 X107.78 Y159.823
G1 F2700 E175.62222
G1 F1125 X64.673 Y116.716 E180.48851
G1 F2700 E175.48851
G0 F9000 X64.444 Y118.75
G1 F2700 E180.48851
G1 F1125 X105.795 Y160.101 E185.15657
G1 F2700 E180.15657
G0 F9000 X103.566 Y160.134
G1 F2700 E185.15657
G1 F1125 X64.214 Y120.783 E189.59891
G1 F2700 E184.59891
G0 F9000 X63.985 Y122.816
G1 F2700 E189.59891
G1 F1125 X101.303 Y160.134 E193.81169
G1 F2700 E188.81169
G0 F9000 X99.04 Y160.134
G1 F2700 E193.81169
G1 F1125 X63.756 Y124.85 E197.79485
G1 F2700 E192.79485
G0 F9000 X63.526 Y126.883
G1 F2700 E197.79485
G1 F1125 X96.732 Y160.088 E201.54337
G1 F2700 E196.54337
G0 F9000 X93.971 Y159.591
G1 F2700 E201.54337
G1 F1125 X63.297 Y128.916 E205.00618
G1 F2700 E200.00618
G0 F9000 X63.067 Y130.949
G1 F2700 E205.00618
G1 F1125 X89.637 Y157.519 E208.00563
G1 F2700 E203.00563
G0 F9000 X88.352 Y158.403
G0 X82.956 Y154.224
G0 X82.572 Y152.717
G1 F2700 E208.00563
G1 F1125 X62.838 Y132.983 E210.23337
G1 F2700 E205.23337
G0 F9000 X62.608 Y135.016
G1 F2700 E210.23337
G1 F1125 X80.49 Y152.898 E212.25205
G1 F2700 E207.25205
G0 F9000 X78.512 Y153.182
G1 F2700 E212.25205
G1 F1125 X62.379 Y137.05 E214.07322
G1 F2700 E209.07322
G0 F9000 X62.239 Y139.172
G1 F2700 E214.07322
G1 F1125 X76.392 Y153.325 E215.67094
G1 F2700 E210.67094
G0 F9000 X73.892 Y153.088
G1 F2700 E215.67094
G1 F1125 X62.46 Y141.656 E216.96148
G1 F2700 E211.96148
G0 F9000 X63.499 Y144.958
G1 F2700 E216.96148
G1 F1125 X70.613 Y152.071 E217.76451
G1 F2700 E212.76451
G0 F9000 X69.806 Y153.318
G0 X68.604 Y152.694
G0 X66.861 Y151.524
G0 X65.832 Y150.658
G0 X64.412 Y149.166
G0 X63.579 Y148.076
G0 X62.514 Y146.307
G0 X61.949 Y145.087
G0 X61.28 Y143.089
G0 X60.998 Y141.788
G0 X60.783 Y139.714
G0 X60.79 Y138.363
G0 X66.943 Y83.911
G0 X67.233 Y82.623
G0 X67.915 Y80.635
G0 X68.496 Y79.407
G0 X69.569 Y77.66
G0 X70.402 Y76.583
G0 X71.586 Y75.36
G0 X72.484 Y74.552
G0 X73.417 Y75.68
G1 F2700 E217.76451
G1 F1125 X149.341 Y151.604 E226.33547
G1 F2700 E221.33547
G0 F9000 X149.979 Y149.979
G1 F2700 E226.33547
G1 F1125 X74.731 Y74.731 E234.83011
G1 F2700 E229.83011
G0 F9000 X76.185 Y73.922
G1 F2700 E234.83011
G1 F1125 X150.441 Y148.179 E243.21283
G1 F2700 E238.21283
G0 F9000 X150.702 Y146.177
G1 F2700 E243.21283
G1 F1125 X77.792 Y73.266 E251.4436
G1 F2700 E246.4436
G0 F9000 X79.574 Y72.786
G1 F2700 E251.4436
G1 F1125 X150.932 Y144.144 E259.4991
G1 F2700 E254.4991
G0 F9000 X151.162 Y142.111
G1 F2700 E259.4991
G1 F1125 X81.583 Y72.532 E267.35378
G1 F2700 E262.35378
G0 F9000 X83.819 Y72.505
G1 F2700 E267.35378
G1 F1125 X151.391 Y140.077 E274.98189
G1 F2700 E269.98189
G0 F9000 X151.621 Y138.044
G1 F2700 E274.98189
G1 F1125 X86.082 Y72.506 E282.38045
G1 F2700 E277.38045
G0 F9000 X88.345 Y72.506
G1 F2700 E282.38045
G1 F1125 X151.851 Y136.011 E289.5495
G1 F2700 E284.5495
G0 F9000 X152.08 Y133.978
G1 F2700 E289.5495
G1 F1125 X90.678 Y72.576 E296.48108
G1 F2700 E291.48108
G0 F9000 X93.487 Y73.122
G1 F2700 E296.48108
G1 F1125 X152.31 Y131.945 E303.12153
G1 F2700 E298.12153
G0 F9000 X152.539 Y129.912
G1 F2700 E303.12153
G1 F1125 X98.232 Y75.605 E309.25218
G1 F2700 E304.25218
G0 F9000 X101.449 Y76.559
G1 F2700 E309.25218
G1 F1125 X152.769 Y127.878 E315.04557
G1 F2700 E310.04557
G0 F9000 X152.998 Y125.845
G1 F2700 E315.04557
G1 F1125 X103.376 Y76.223 E320.64733
G1 F2700 E315.64733
G0 F9000 X104.854 Y75.439
G1 F2700 E320.64733
G1 F1125 X153.228 Y123.812 E326.10814
G1 F2700 E321.10814
G0 F9000 X153.457 Y121.779
G1 F2700 E326.10814
G1 F1125 X106.158 Y74.48 E331.44766
G1 F2700 E326.44766
G0 F9000 X107.596 Y73.655
G1 F2700 E331.44766
G1 F1125 X153.687 Y119.746 E336.65081
G1 F2700 E331.65081
G0 F9000 X153.917 Y117.713
G1 F2700 E336.65081
G1 F1125 X109.173 Y72.969 E341.7019
G1 F2700 E336.7019
G0 F9000 X110.922 Y72.455
G1 F2700 E341.7019
G1 F1125 X154.146 Y115.679 E346.5814
G1 F2700 E341.5814
G0 F9000 X154.376 Y113.646
G1 F2700 E346.5814
G1 F1125 X112.893 Y72.163 E351.26436
G1 F2700 E346.26436
G0 F9000 X115.109 Y72.117
G1 F2700 E351.26436
G1 F1125 X154.606 Y111.613 E355.72307
G1 F2700 E350.72307
G0 F9000 X154.835 Y109.58
G1 F2700 E355.72307
G1 F1125 X117.371 Y72.117 E359.95227
G1 F2700 E354.95227
G0 F9000 X119.634 Y72.117
G1 F2700 E359.95227
G1 F1125 X155.064 Y107.547 E363.95192
G1 F2700 E358.95192
G0 F9000 X155.294 Y105.514
G1 F2700 E363.95192
G1 F1125 X121.932 Y72.151 E367.71816
G1 F2700 E362.71816
G0 F9000 X124.648 Y72.605
G1 F2700 E367.71816
G1 F1125 X155.523 Y103.48 E371.2036
G1 F2700 E366.2036
G0 F9000 X155.753 Y101.447
G1 F2700 E371.2036
G1 F1125 X128.694 Y74.388 E374.25825
G1 F2700 E369.25825
G0 F9000 X129.739 Y73.32
G0 X135.919 Y78.085
G0 X136.144 Y79.575
G1 F2700 E374.25825
G1 F1125 X155.983 Y99.414 E376.49785
G1 F2700 E371.49785
G0 F9000 X156.212 Y97.381
G1 F2700 E376.49785
G1 F1125 X138.256 Y79.425 E378.52488
G1 F2700 E373.52488
G0 F9000 X140.236 Y79.142
G1 F2700 E378.52488
G1 F1125 X156.442 Y95.348 E380.35435
G1 F2700 E375.35435
G0 F9000 X156.593 Y93.236
G1 F2700 E380.35435
G1 F1125 X142.345 Y78.988 E381.96279
G1 F2700 E376.96279
G0 F9000 X144.819 Y79.199
G1 F2700 E381.96279
G1 F1125 X156.389 Y90.769 E383.26891
G1 F2700 E378.26891
G0 F9000 X155.411 Y87.529
G1 F2700 E383.26891
G1 F1125 X148.056 Y80.173 E384.09927
G1 F2700 E379.09927
G0 F300 X148.056 Y80.173 Z0.54
G0 F9000 X148.638 Y78.826
G0 X150.228 Y79.618
G0 X151.971 Y80.788
G0 X153 Y81.654
G0 X154.42 Y83.146
G0 X155.253 Y84.236
G0 X156.318 Y86.005
G0 X156.883 Y87.225
G0 X157.552 Y89.223
G0 X157.834 Y90.524
G0 X158.049 Y92.598
G0 X158.042 Y93.949
G0 X151.893 Y148.385
G0 X151.592 Y149.718
G0 X151.047 Y151.304
G0 X150.435 Y152.713
G0 X149.074 Y152.153
;TIME_ELAPSED:296.733322
;LAYER:-5
;TYPE:SUPPORT
G1 F2700 E384.09927
G1 F1125 X143.038 Y158.188 E384.95094
G1 X143.393 Y158.009 E384.99061
G1 X144.281 Y157.47 E385.09426
G1 X145.078 Y156.904 E385.1918
G1 X145.914 Y156.219 E385.29964
G1 X146.723 Y155.436 E385.41198
G1 X147.375 Y154.712 E385.5092
G1 X147.957 Y153.961 E385.604
G1 X148.586 Y153.028 E385.71628
G1 X149.046 Y152.212 E385.80974
G1 X149.536 Y151.189 E385.92292
G1 X149.902 Y150.233 E386.02506
G1 X150.04 Y149.772 E386.07308
G1 X140.62 Y159.192 E387.40234
G1 X139.541 Y159.472 E387.51357
G1 X138.793 Y159.606 E387.5894
G1 X150.475 Y147.923 E389.23792
G1 X150.586 Y147.206 E389.31032
G1 X150.689 Y146.295 E389.4018
G1 X137.206 Y159.778 E391.30439
G1 X136.429 Y159.807 E391.38198
G1 X135.763 Y159.807 E391.44843
G1 X150.869 Y144.7 E393.58012
G1 X151.05 Y143.106 E393.74019
G1 X134.348 Y159.807 E396.09696
G1 X132.935 Y159.806 E396.23795
G1 X151.229 Y141.512 E398.81943
G1 X151.409 Y139.918 E398.97949
G1 X131.521 Y159.806 E401.7859
G1 X130.106 Y159.806 E401.92709
G1 X151.59 Y138.323 E404.95864
G1 X151.769 Y136.729 E405.11869
G1 X128.723 Y159.775 E408.37073
G1 X128.373 Y159.76 E408.40569
G1 X127.432 Y159.652 E408.5002
G1 X151.95 Y135.135 E411.95988
G1 X152.13 Y133.54 E412.12004
