;FLAVOR:Marlin
;TIME:14389
;Filament used: 10.7204m
;Layer height: 0.2
;MINX:57.889
;MINY:57.859
;MINZ:0.24
;MAXX:177.134
;MAXY:177.141
;MAXZ:17.09
;Generated with Cura_SteamEngine 5.3.0
M140 S50
M105
M190 S50
M104 S200
M105
M109 S200
M82 ;absolute extrusion mode
; Ender 3 Custom Start G-code
G92 E0 ; Reset Extruder
G28 ; Home all axes
G1 Z2.0 F3000 ; Move Z Axis up little to prevent scratching of Heat Bed
G1 X0.1 Y20 Z0.3 F5000.0 ; Move to start position
G1 X0.1 Y200.0 Z0.3 F1500.0 E15 ; Draw the first line
G1 X0.4 Y200.0 Z0.3 F5000.0 ; Move to side a little
G1 X0.4 Y20 Z0.3 F1500.0 E30 ; Draw the second line
G92 E0 ; Reset Extruder
G1 Z2.0 F3000 ; Move Z Axis up little to prevent scratching of Heat Bed
G1 X5 Y20 Z0.3 F5000.0 ; Move over to prevent blob squish
G92 E0
G92 E0
G1 F2700 E-5
;LAYER_COUNT:80
;LAYER:-6
M107
G0 F9000 X76.128 Y76.014 Z0.24
;TYPE:SUPPORT-INTERFACE
G1 F2700 E0
G1 F1125 X77.137 Y75.032 E0.11239
G1 X80.742 Y71.878 E0.49475
G1 X81.974 Y70.912 E0.61972
G1 X85.723 Y68.278 E0.98546
G1 X87.048 Y67.443 E1.11047
G1 X91.25 Y65.121 E1.4937
G1 X92.513 Y64.507 E1.6058
G1 X96.805 Y62.693 E1.97775
G1 X98.417 Y62.109 E2.11461
G1 X102.89 Y60.765 E2.48744
G1 X104.287 Y60.422 E2.60226
G1 X109.181 Y59.499 E2.99981
G1 X109.194 Y59.509 E3.00112
G1 X110.453 Y59.339 E3.10253
G1 X115.26 Y58.96 E3.48744
G1 X116.8 Y58.924 E3.6104
G1 X121.226 Y59.026 E3.96379
G1 X121.238 Y59.038 E3.96515
G1 X122.869 Y59.164 E4.09573
G1 X127.638 Y59.803 E4.47981
G1 X129.205 Y60.103 E4.60717
G1 X133.578 Y61.171 E4.9665
G1 X135.088 Y61.623 E5.09232
G1 X139.482 Y63.202 E5.46503
G1 X141.047 Y63.862 E5.60061
G1 X145.234 Y65.902 E5.97239
G1 X146.504 Y66.604 E6.08823
G1 X150.545 Y69.134 E6.4688
G1 X151.644 Y69.898 E6.57564
G1 X151.884 Y70.077 E6.59954
G1 X155.472 Y72.897 E6.96383
G1 X156.675 Y73.953 E7.0916
G1 X160.04 Y77.234 E7.46676
G1 X161.125 Y78.415 E7.59478
G1 X164.051 Y81.939 E7.96041
G1 X164.993 Y83.211 E8.08676
G1 X167.601 Y87.152 E8.46399
G1 X168.381 Y88.479 E8.58686
G1 X170.484 Y92.522 E8.95064
G1 X171.142 Y93.973 E9.07782
G1 X172.815 Y98.219 E9.44211
G1 X172.806 Y98.239 E9.44386
G1 X172.975 Y98.672 E9.48097
G1 X172.966 Y98.687 E9.48236
G1 X173.384 Y99.965 E9.5897
G1 X174.576 Y104.345 E9.95204
G1 X174.91 Y105.885 E10.07783
G1 X175.643 Y110.448 E10.44674
G1 X175.846 Y112.287 E10.59443
G1 X175.835 Y112.299 E10.59573
G1 X176.069 Y116.772 E10.95327
G1 X176.067 Y118.344 E11.07875
G1 X175.85 Y122.666 E11.42419
G1 X175.837 Y122.679 E11.42566
G1 X175.646 Y124.544 E11.57531
G1 X174.914 Y129.102 E11.94381
G1 X174.579 Y130.646 E12.06992
G1 X173.386 Y135.029 E12.43252
G1 X172.856 Y136.638 E12.56775
G1 X171.146 Y141.023 E12.94345
G1 X170.489 Y142.469 E13.07023
G1 X168.389 Y146.507 E13.43355
G1 X167.607 Y147.839 E13.55684
G1 X164.942 Y151.859 E13.94185
G1 X163.988 Y153.133 E14.0689
G1 X161.012 Y156.715 E14.44063
G1 X160.029 Y157.778 E14.55621
G1 X156.678 Y161.045 E14.92979
G1 X155.386 Y162.171 E15.06659
G1 X151.89 Y164.918 E15.4215
G1 X150.436 Y165.938 E15.56327
G1 X146.51 Y168.391 E15.93281
G1 X145.089 Y169.173 E16.06228
G1 X140.928 Y171.191 E16.43143
G1 X139.567 Y171.764 E16.54931
G1 X135.21 Y173.337 E16.91907
G1 X133.555 Y173.834 E17.05701
G1 X129.193 Y174.9 E17.41545
G1 X127.654 Y175.194 E17.54052
G1 X122.867 Y175.836 E17.92606
G1 X121.296 Y175.971 E18.05193
G1 X121.282 Y175.958 E18.05345
G1 X116.786 Y176.076 E18.41247
G1 X115.244 Y176.045 E18.53558
G1 X110.578 Y175.674 E18.90922
G1 X109.217 Y175.509 E19.01865
G1 X109.206 Y175.492 E19.02027
G1 X108.878 Y175.448 E19.04669
G1 X104.289 Y174.58 E19.4195
G1 X102.891 Y174.237 E19.5344
G1 X98.418 Y172.892 E19.90725
G1 X96.806 Y172.308 E20.04411
G1 X92.514 Y170.494 E20.41606
G1 X91.104 Y169.805 E20.54133
G1 X87.049 Y167.558 E20.91139
G1 X85.724 Y166.723 E21.03641
G1 X81.974 Y164.089 E21.40221
G1 X80.629 Y163.031 E21.53881
G1 X77.122 Y159.954 E21.91123
G1 X76.101 Y158.958 E22.02509
G1 X72.944 Y155.543 E22.39633
G1 X71.917 Y154.315 E22.52411
G1 X69.157 Y150.602 E22.89342
G1 X68.244 Y149.23 E23.02497
G1 X65.861 Y145.183 E23.39986
G1 X65.071 Y143.665 E23.53646
G1 X65.077 Y143.656 E23.53733
G1 X63.172 Y139.473 E23.90423
G1 X63.181 Y139.457 E23.90569
G1 X62.642 Y138.071 E24.0244
G1 X61.215 Y133.768 E24.38628
G1 X60.769 Y132.137 E24.52125
G1 X59.801 Y127.679 E24.8854
G1 X59.542 Y126.104 E25.01281
G1 X59.013 Y121.216 E25.40527
G1 X59.026 Y121.202 E25.4068
G1 X58.953 Y119.789 E25.51974
G1 X58.954 Y115.217 E25.8847
G1 X59.009 Y113.843 E25.99446
G1 X59.024 Y113.83 E25.99605
G1 X59.521 Y109.047 E26.3799
G1 X59.795 Y107.342 E26.51775
G1 X60.768 Y102.864 E26.88355
G1 X61.214 Y101.233 E27.01852
G1 X62.689 Y96.796 E27.39176
G1 X63.155 Y95.569 E27.49653
G1 X63.169 Y95.565 E27.49769
G1 X65.077 Y91.344 E27.86745
G1 X65.071 Y91.335 E27.86832
G1 X65.86 Y89.818 E28.00481
G1 X68.242 Y85.77 E28.37973
G1 X69.156 Y84.399 E28.51126
G1 X71.91 Y80.694 E28.87976
G1 X72.963 Y79.435 E29.01078
G1 X76.128 Y76.014 E29.3828
G0 F9000 X76.355 Y76.355
G1 F1125 X158.605 Y158.605 E38.66789
G1 F2700 E33.66789
G0 F9000 X157.459 Y159.722
G1 F2700 E38.66789
G1 F1125 X75.267 Y77.53 E47.94644
G1 F2700 E42.94644
G0 F9000 X74.18 Y78.705
G1 F2700 E47.94644
G1 F1125 X156.309 Y160.834 E57.21787
G1 F2700 E52.21787
G0 F9000 X155.098 Y161.887
G1 F2700 E57.21787
G1 F1125 X73.102 Y79.89 E66.47434
G1 F2700 E61.47434
G0 F9000 X72.081 Y81.132
G1 F2700 E66.47434
G1 F1125 X153.831 Y162.882 E75.70299
G1 F2700 E70.70299
G0 F9000 X152.564 Y163.878
G1 F2700 E75.70299
G1 F1125 X71.116 Y82.43 E84.89754
G1 F2700 E79.89754
G0 F9000 X70.151 Y83.727
G1 F2700 E84.89754
G1 F1125 X151.279 Y164.856 E94.05603
G1 F2700 E89.05603
G0 F9000 X149.937 Y165.776
G1 F2700 E94.05603
G1 F1125 X69.205 Y85.044 E103.16975
G1 F2700 E98.16975
G0 F9000 X68.321 Y86.423
G1 F2700 E103.16975
G1 F1125 X148.544 Y166.646 E112.22602
G1 F2700 E107.22602
G0 F9000 X147.152 Y167.517
G1 F2700 E112.22602
G1 F1125 X67.482 Y87.847 E121.21986
G1 F2700 E116.21986
G0 F9000 X66.644 Y89.272
G1 F2700 E121.21986
G1 F1125 X145.733 Y168.36 E130.14805
G1 F2700 E125.14805
G0 F9000 X144.246 Y169.136
G1 F2700 E130.14805
G1 F1125 X65.837 Y90.727 E138.99954
G1 F2700 E133.99954
G0 F9000 X65.103 Y92.256
G1 F2700 E138.99954
G1 F1125 X142.721 Y169.874 E147.76173
G1 F2700 E142.76173
G0 F9000 X141.197 Y170.613
G1 F2700 E147.76173
G1 F1125 X64.399 Y93.814 E156.43141
G1 F2700 E151.43141
G0 F9000 X63.694 Y95.372
G1 F2700 E156.43141
G1 F1125 X139.625 Y171.303 E165.00315
G1 F2700 E160.00315
G0 F9000 X137.972 Y171.913
G1 F2700 E165.00315
G1 F1125 X63.046 Y96.987 E173.46145
G1 F2700 E168.46145
G0 F9000 X62.482 Y98.685
G1 F2700 E173.46145
G1 F1125 X136.309 Y172.513 E181.79573
G1 F2700 E176.79573
G0 F9000 X134.626 Y173.093
G1 F2700 E181.79573
G1 F1125 X61.917 Y100.384 E190.00375
G1 F2700 E185.00375
G0 F9000 X61.386 Y102.116
G1 F2700 E190.00375
G1 F1125 X132.861 Y173.59 E198.07241
G1 F2700 E193.07241
G0 F9000 X131.043 Y174.035
G1 F2700 E198.07241
G1 F1125 X60.944 Y103.936 E205.98579
G1 F2700 E200.98579
G0 F9000 X60.539 Y105.794
G1 F2700 E205.98579
G1 F1125 X129.224 Y174.479 E213.73955
G1 F2700 E208.73955
G0 F9000 X127.316 Y174.834
G1 F2700 E213.73955
G1 F1125 X60.147 Y107.664 E221.32222
G1 F2700 E216.32222
G0 F9000 X59.861 Y109.641
G1 F2700 E221.32222
G1 F1125 X125.321 Y175.102 E228.71197
G1 F2700 E223.71197
G0 F9000 X123.326 Y175.369
G1 F2700 E228.71197
G1 F1125 X59.647 Y111.691 E235.90055
G1 F2700 E230.90055
G0 F9000 X59.435 Y113.74
G1 F2700 E235.90055
G1 F1125 X121.251 Y175.556 E242.87887
G1 F2700 E237.87887
G0 F9000 X119.047 Y175.615
G1 F2700 E242.87887
G1 F1125 X59.353 Y115.921 E249.61765
G1 F2700 E244.61765
G0 F9000 X59.353 Y118.184
G1 F2700 E249.61765
G1 F1125 X116.842 Y175.673 E256.1075
G1 F2700 E251.1075
G0 F9000 X114.488 Y175.582
G1 F2700 E256.1075
G1 F1125 X59.388 Y120.482 E262.32767
G1 F2700 E257.32767
G0 F9000 X59.604 Y122.96
G1 F2700 E262.32767
G1 F1125 X112.03 Y175.387 E268.24602
G1 F2700 E263.24602
G0 F9000 X109.521 Y175.141
G1 F2700 E268.24602
G1 F1125 X59.879 Y125.498 E273.8501
G1 F2700 E268.8501
G0 F9000 X60.324 Y128.206
G1 F2700 E273.8501
G1 F1125 X106.756 Y174.638 E279.09174
G1 F2700 E274.09174
G0 F9000 X103.935 Y174.08
G1 F2700 E279.09174
G1 F1125 X60.953 Y131.098 E283.94392
G1 F2700 E278.94392
G0 F9000 X61.773 Y134.181
G1 F2700 E283.94392
G1 F1125 X100.774 Y173.182 E288.34669
G1 F2700 E283.34669
G0 F9000 X97.44 Y172.11
G1 F2700 E288.34669
G1 F1125 X62.895 Y137.566 E292.24638
G1 F2700 E287.24638
G0 F9000 X64.507 Y141.441
G1 F2700 E292.24638
G1 F1125 X93.572 Y170.506 E295.52748
G1 F2700 E290.52748
G0 F9000 X92.232 Y171.534
G0 X91.314 Y171.089
G0 X88.257 Y169.444
G0 X88.966 Y168.162
G1 F2700 E295.52748
G1 F1125 X66.809 Y146.005 E298.02876
G1 F2700 E293.02876
G0 F9000 X65.546 Y146.75
G0 X67.4 Y149.885
G0 X67.906 Y150.643
G0 X69.964 Y153.471
G0 X71.139 Y152.598
G1 F2700 E298.02876
G1 F1125 X82.534 Y163.993 E299.31512
G1 F2700 E294.31512
G0 F9000 X81.693 Y165.193
G0 X85.219 Y167.665
G0 X86.593 Y168.523
G0 X90.766 Y170.828
G0 X92.232 Y171.534
G0 X96.575 Y173.362
G0 X98.091 Y173.906
G0 X102.619 Y175.266
G0 X104.206 Y175.652
G0 X108.861 Y176.523
G0 X110.475 Y176.734
G0 X115.186 Y177.103
G0 X116.8 Y177.141
G0 X121.509 Y177.013
G0 X123.148 Y176.876
G0 X127.831 Y176.244
G0 X129.428 Y175.938
G0 X134.009 Y174.815
G0 X135.547 Y174.347
G0 X139.959 Y172.755
G0 X141.487 Y172.107
G0 X145.728 Y170.041
G0 X147.141 Y169.255
G0 X151.146 Y166.746
G0 X152.469 Y165.813
G0 X156.189 Y162.889
G0 X156.876 Y162.287
G0 X160.677 Y158.64
G0 X159.751 Y157.488
G1 F2700 E299.31512
G1 F1125 X77.504 Y75.241 E308.59988
G1 F2700 E303.59988
G0 F9000 X78.711 Y74.186
G1 F2700 E308.59988
G1 F1125 X160.831 Y156.305 E317.87023
G1 F2700 E312.87023
G0 F9000 X161.858 Y155.069
G1 F2700 E317.87023
G1 F1125 X79.917 Y73.129 E327.12039
G1 F2700 E322.12039
G0 F9000 X81.131 Y72.08
G1 F2700 E327.12039
G1 F1125 X162.885 Y153.834 E336.34948
G1 F2700 E331.34948
G0 F9000 X163.898 Y152.585
G1 F2700 E336.34948
G1 F1125 X82.409 Y71.095 E345.54872
G1 F2700 E340.54872
G0 F9000 X83.737 Y70.161
G1 F2700 E345.54872
G1 F1125 X164.849 Y151.273 E354.70535
G1 F2700 E349.70535
G0 F9000 X165.752 Y149.913
G1 F2700 E354.70535
G1 F1125 X85.067 Y69.227 E363.81382
G1 F2700 E358.81382
G0 F9000 X86.416 Y68.314
G1 F2700 E363.81382
G1 F1125 X166.654 Y148.552 E372.87178
G1 F2700 E367.87178
G0 F9000 X167.535 Y147.17
G1 F2700 E372.87178
G1 F1125 X87.831 Y67.467 E381.8694
G1 F2700 E376.8694
G0 F9000 X89.289 Y66.661
G1 F2700 E381.8694
G1 F1125 X168.347 Y145.719 E390.79415
G1 F2700 E385.79415
G0 F9000 X169.121 Y144.231
G1 F2700 E390.79415
G1 F1125 X90.746 Y65.856 E399.6418
G1 F2700 E394.6418
G0 F9000 X92.237 Y65.084
G1 F2700 E399.6418
G1 F1125 X169.895 Y142.742 E408.40851
G1 F2700 E403.40851
G0 F9000 X170.622 Y141.207
G1 F2700 E408.40851
G1 F1125 X93.809 Y64.393 E417.07988
G1 F2700 E412.07988
G0 F9000 X95.4 Y63.721
G1 F2700 E417.07988
G1 F1125 X171.273 Y139.594 E425.64508
G1 F2700 E420.64508
G0 F9000 X171.907 Y137.966
G1 F2700 E425.64508
G1 F1125 X96.992 Y63.051 E434.10213
G1 F2700 E429.10213
G0 F9000 X98.658 Y62.454
G1 F2700 E434.10213
G1 F1125 X172.535 Y136.331 E442.442
G1 F2700 E437.442
G0 F9000 X173.083 Y134.616
G1 F2700 E442.442
G1 F1125 X100.397 Y61.931 E450.64737
G1 F2700 E445.64737
G0 F9000 X102.138 Y61.408
G1 F2700 E450.64737
G1 F1125 X173.567 Y132.838 E458.71095
G1 F2700 E453.71095
G0 F9000 X174.051 Y131.059
G1 F2700 E458.71095
G1 F1125 X103.917 Y60.925 E466.62828
G1 F2700 E461.62828
G0 F9000 X105.798 Y60.543
G1 F2700 E466.62828
G1 F1125 X174.478 Y129.223 E474.38148
G1 F2700 E469.38148
G0 F9000 X174.8 Y127.282
G1 F2700 E474.38148
G1 F1125 X107.702 Y60.184 E481.95608
G1 F2700 E476.95608
G0 F9000 X109.633 Y59.853
G1 F2700 E481.95608
G1 F1125 X175.113 Y125.333 E489.34803
G1 F2700 E484.34803
G0 F9000 X175.368 Y123.325
G1 F2700 E489.34803
G1 F1125 X111.686 Y59.643 E496.537
G1 F2700 E491.537
G0 F9000 X113.784 Y59.478
G1 F2700 E496.537
G1 F1125 X175.521 Y121.215 E503.50641
G1 F2700 E498.50641
G0 F9000 X175.63 Y119.061
G1 F2700 E503.50641
G1 F1125 X115.913 Y59.345 E510.24772
G1 F2700 E505.24772
G0 F9000 X118.187 Y59.356
G1 F2700 E510.24772
G1 F1125 X175.668 Y116.837 E516.73667
G1 F2700 E511.73667
G0 F9000 X175.547 Y114.453
G1 F2700 E516.73667
G1 F1125 X120.503 Y59.409 E522.95051
G1 F2700 E517.95051
G0 F9000 X122.933 Y59.576
G1 F2700 E522.95051
G1 F1125 X175.418 Y112.061 E528.87548
G1 F2700 E523.87548
G0 F9000 X175.077 Y109.458
G1 F2700 E528.87548
G1 F1125 X125.545 Y59.925 E534.46713
G1 F2700 E529.46713
G0 F9000 X128.2 Y60.318
G1 F2700 E534.46713
G1 F1125 X174.645 Y106.763 E539.71024
G1 F2700 E534.71024
G0 F9000 X174.038 Y103.893
G1 F2700 E539.71024
G1 F1125 X131.13 Y60.985 E544.55407
G1 F2700 E539.55407
G0 F9000 X134.175 Y61.767
G1 F2700 E544.55407
G1 F1125 X173.191 Y100.783 E548.95853
G1 F2700 E543.95853
G0 F9000 X172.056 Y97.385
G1 F2700 E548.95853
G1 F1125 X137.634 Y62.963 E552.84439
G1 F2700 E547.84439
G0 F9000 X141.424 Y64.491
G1 F2700 E552.84439
G1 F1125 X170.533 Y93.6 E556.13046
G1 F2700 E551.13046
G0 F9000 X171.869 Y92.995
G0 X171.748 Y92.729
G0 X169.505 Y88.333
G0 X168.205 Y89.009
G1 F2700 E556.13046
G1 F1125 X145.953 Y66.757 E558.64246
G1 F2700 E553.64246
G0 F9000 X147.044 Y65.688
G0 X151.136 Y68.247
G0 X153.541 Y70.027
G0 X152.638 Y71.18
G1 F2700 E558.64246
G1 F1125 X163.994 Y82.535 E559.92437
G1 F2700 E554.92437
G0 F300 X163.994 Y82.535 Z0.54
G0 F9000 X165.169 Y81.662
G0 X165.897 Y82.649
G0 X168.507 Y86.59
G0 X169.317 Y87.97
G0 X171.494 Y92.166
G0 X172.166 Y93.659
G0 X173.904 Y98.132
G0 X174.407 Y99.666
G0 X175.633 Y104.193
G0 X175.977 Y105.797
G0 X176.722 Y110.476
G0 X176.888 Y112.06
G0 X177.134 Y116.758
G0 X177.131 Y118.386
G0 X176.879 Y123.056
G0 X176.699 Y124.697
G0 X175.958 Y129.312
G0 X175.609 Y130.91
G0 X174.364 Y135.478
G0 X173.855 Y137.01
G0 X172.123 Y141.444
G0 X171.44 Y142.946
G0 X169.257 Y147.136
G0 X168.41 Y148.563
G0 X165.805 Y152.484
G0 X164.823 Y153.796
G0 X161.807 Y157.423
G0 X160.677 Y158.64
G0 X157.942 Y161.295
G0 X156.189 Y162.889
G0 X155.142 Y161.854
;TIME_ELAPSED:417.583905
;LAYER:-5
;TYPE:SUPPORT
G1 F2700 E559.92437
G1 F1125 X156.317 Y160.834 E560.07962
G1 X159.739 Y157.503 E560.55613
G1 X160.781 Y156.371 E560.70964
G1 X162.578 Y154.205 E560.99047
G1 X154.153 Y162.63 E562.17932
G1 X151.579 Y164.648 E562.50568
G1 X150.33 Y165.527 E562.65808
G1 X149.024 Y166.345 E562.81184
G1 X166.333 Y149.036 E565.25433
G1 X167.259 Y147.638 E565.42164
G1 X168.043 Y146.306 E565.57587
G1 X168.47 Y145.485 E565.6682
G1 X145.415 Y168.54 E568.92151
G1 X145.05 Y168.742 E568.96314
G1 X142.613 Y169.927 E569.23353
G1 X169.999 Y142.542 E573.09791
G1 X170.124 Y142.3 E573.12509
G1 X170.815 Y140.77 E573.2926
G1 X171.109 Y140.017 E573.37326
G1 X139.965 Y171.161 E577.76802
G1 X139.346 Y171.421 E577.83501
G1 X137.697 Y172.015 E578.0099
G1 X172.012 Y137.699 E582.85218
G1 X172.485 Y136.489 E582.98182
G1 X172.816 Y135.482 E583.08758
G1 X135.486 Y172.811 E588.35518
G1 X135.077 Y172.959 E588.39858
G1 X133.422 Y173.461 E588.57114
G1 X173.388 Y133.495 E594.21078
G1 X173.917 Y131.552 E594.41171
G1 X131.561 Y173.908 E600.3886
G1 X129.687 Y174.368 E600.58114
G1 X174.379 Y129.676 E606.88766
G1 X174.523 Y129.013 E606.95536
G1 X174.692 Y127.948 E607.06295
G1 X127.904 Y174.737 E613.66532
G1 X127.463 Y174.82 E613.71009
G1 X126.244 Y174.982 E613.83279
G1 X174.962 Y126.265 E620.70736
G1 X175.231 Y124.581 E620.87752
G1 X124.613 Y175.199 E628.02027
G1 X122.982 Y175.416 E628.18444
G1 X175.412 Y122.986 E635.58288
G1 X175.497 Y121.487 E635.73269
G1 X121.434 Y175.549 E643.3615
G1 X119.98 Y175.59 E643.50663
G1 X175.577 Y119.993 E651.35197
G1 X175.658 Y118.498 E651.50136
G1 X118.526 Y175.629 E659.56323
G1 X117.073 Y175.668 E659.70827
G1 X175.668 Y117.073 E667.97665
G1 X175.669 Y116.764 E668.00749
G1 X175.613 Y115.714 E668.11241
G1 X115.678 Y175.649 E676.56988
G1 X115.248 Y175.638 E676.6128
G1 X114.346 Y175.567 E676.70308
G1 X175.542 Y114.37 E685.33857
G1 X175.472 Y113.026 E685.47286
G1 X113.035 Y175.463 E694.28339
G1 X111.725 Y175.359 E694.41451
G1 X175.377 Y111.708 E703.39643
G1 X175.235 Y110.435 E703.52424
G1 X110.418 Y175.252 E712.67062
G1 X109.171 Y175.085 E712.79615
G1 X175.04 Y109.216 E722.09098
